;FLAVOR:Marlin
;TIME:2071
;Filament used: 1.02319m
;Layer height: 0.2
;MINX:176.005
;MINY:134.74
;MINZ:0.2
;MAXX:206.658
;MAXY:192.663
;MAXZ:31
;Generated with Cura_SteamEngine 5.3.0
M140 S60
M105
M190 S60
M104 S200
M105
M109 S200
M82 ;absolute extrusion mode
; Ender 3 S1 Pro Start G-code
G28 ;Home
G92 E0 ;Reset Extruder
G1 Z2.0 F3000 ;Move Z Axis up
G1 X10.1 Y20 Z0.28 F5000.0 ;Move to start position
G1 X10.1 Y200.0 Z0.28 F1500.0 E15 ;Draw the first line
G1 X10.4 Y200.0 Z0.28 F5000.0 ;Move to side a little
G1 X10.4 Y20 Z0.28 F1500.0 E30 ;Draw the second line
G92 E0 ;Reset Extruder
G1 Z2.0 F3000 ;Move Z Axis up

G92 E0
G92 E0
G1 F2400 E-0.8
;LAYER_COUNT:155
;LAYER:0
M107
G0 F6000 X179.421 Y140.469 Z0.2
;TYPE:SKIRT
G1 F2400 E0
G1 F1200 X179.892 Y139.914 E0.02421
G1 X180.303 Y139.47 E0.04433
G1 X180.732 Y139.04 E0.06454
G1 X181.229 Y138.575 E0.08717
G1 X181.678 Y138.193 E0.10678
G1 X182.163 Y137.811 E0.12731
G1 X182.74 Y137.402 E0.15084
G1 X183.279 Y137.051 E0.17223
G1 X183.789 Y136.747 E0.19198
G1 X184.364 Y136.434 E0.21375
G1 X184.944 Y136.153 E0.23519
G1 X185.483 Y135.916 E0.25477
G1 X186.068 Y135.688 E0.27566
G1 X186.69 Y135.471 E0.29757
G1 X187.346 Y135.277 E0.32032
G1 X187.909 Y135.138 E0.33961
G1 X188.505 Y135.012 E0.35987
G1 X189.182 Y134.895 E0.38272
G1 X189.795 Y134.818 E0.40327
G1 X190.418 Y134.768 E0.42406
G1 X191.076 Y134.743 E0.44596
G1 X191.755 Y134.74 E0.46854
G1 X192.213 Y134.76 E0.48379
G1 X193.008 Y134.83 E0.51033
G1 X193.611 Y134.909 E0.53056
G1 X194.222 Y135.013 E0.55117
G1 X194.823 Y135.137 E0.57158
G1 X195.45 Y135.299 E0.59312
G1 X196.129 Y135.503 E0.6167
G1 X196.684 Y135.698 E0.63627
G1 X197.311 Y135.947 E0.65871
G1 X197.87 Y136.196 E0.67906
G1 X198.439 Y136.478 E0.70018
G1 X199.004 Y136.788 E0.72162
G1 X199.534 Y137.109 E0.74223
G1 X200.052 Y137.448 E0.76282
G1 X200.459 Y137.736 E0.7794
G1 X201.105 Y138.245 E0.80675
G1 X201.594 Y138.667 E0.82824
G1 X202.009 Y139.054 E0.84711
G1 X202.463 Y139.516 E0.86865
G1 X202.92 Y140.014 E0.89114
G1 X203.333 Y140.512 E0.91265
G1 X203.682 Y140.973 E0.93188
G1 X204.054 Y141.499 E0.95331
G1 X204.43 Y142.089 E0.97658
G1 X204.707 Y142.565 E0.9949
G1 X205.024 Y143.15 E1.01703
G1 X205.287 Y143.713 E1.0377
G1 X205.556 Y144.336 E1.06027
G1 X205.776 Y144.914 E1.08084
G1 X205.975 Y145.514 E1.10186
G1 X206.153 Y146.158 E1.12409
G1 X206.303 Y146.77 E1.14504
G1 X206.424 Y147.379 E1.16569
G1 X206.523 Y148.015 E1.1871
G1 X206.599 Y148.645 E1.20821
G1 X206.645 Y149.244 E1.22819
G1 X206.658 Y149.591 E1.23974
G1 X206.655 Y150.569 E1.27227
G1 X206.63 Y151.053 E1.28839
G1 X206.547 Y151.853 E1.31514
G1 X206.468 Y152.443 E1.33494
G1 X206.346 Y153.114 E1.35762
G1 X206.212 Y153.706 E1.37781
G1 X206.061 Y154.27 E1.39723
G1 X205.848 Y154.959 E1.42121
G1 X205.645 Y155.51 E1.44074
G1 X205.393 Y156.135 E1.46316
G1 X205.131 Y156.703 E1.48396
G1 X204.836 Y157.283 E1.50561
G1 X204.536 Y157.808 E1.52572
G1 X204.201 Y158.355 E1.54705
G1 X203.846 Y158.881 E1.56816
G1 X203.466 Y159.392 E1.58934
G1 X203.055 Y159.902 E1.61112
G1 X202.658 Y160.359 E1.63126
G1 X202.257 Y160.782 E1.65064
G1 X201.786 Y161.237 E1.67242
G1 X201.27 Y161.693 E1.69533
G1 X200.799 Y162.079 E1.71558
G1 X200.268 Y162.479 E1.73769
G1 X199.752 Y162.831 E1.75847
G1 X199.213 Y163.171 E1.77967
G1 X198.656 Y163.486 E1.80095
G1 X198.086 Y163.78 E1.82228
G1 X197.488 Y164.055 E1.84417
G1 X196.917 Y164.292 E1.86473
G1 X196.286 Y164.524 E1.88709
G1 X195.697 Y164.71 E1.90764
G1 X195.09 Y164.873 E1.92854
G1 X194.461 Y165.021 E1.95003
G1 X193.837 Y165.138 E1.97115
G1 X193.235 Y165.223 E1.99137
G1 X192.373 Y165.308 E2.02018
G1 X193.012 Y165.443 E2.0419
G1 X193.563 Y165.585 E2.06083
G1 X194.299 Y165.816 E2.08649
G1 X194.858 Y166.022 E2.1063
G1 X195.502 Y166.297 E2.12959
G1 X196.131 Y166.601 E2.15283
G1 X196.699 Y166.914 E2.1744
G1 X197.288 Y167.271 E2.1973
G1 X197.821 Y167.63 E2.21868
G1 X198.309 Y167.997 E2.23899
G1 X198.883 Y168.47 E2.26373
G1 X199.267 Y168.818 E2.28096
G1 X199.806 Y169.354 E2.30624
G1 X200.162 Y169.736 E2.32361
G1 X200.684 Y170.377 E2.35111
G1 X201.116 Y170.965 E2.37537
G1 X201.469 Y171.493 E2.3965
G1 X201.759 Y171.968 E2.41501
G1 X202.118 Y172.626 E2.43994
G1 X202.282 Y172.959 E2.45229
G1 X202.651 Y173.833 E2.48384
G1 X202.895 Y174.484 E2.50696
G1 X203.042 Y174.944 E2.52302
G1 X203.219 Y175.608 E2.54588
G1 X203.388 Y176.406 E2.57301
G1 X203.483 Y176.992 E2.59276
G1 X203.546 Y177.554 E2.61157
G1 X203.598 Y178.459 E2.64172
G1 X203.605 Y179.145 E2.66453
G1 X203.582 Y179.721 E2.68371
G1 X203.518 Y180.455 E2.70821
G1 X203.466 Y180.849 E2.72143
G1 X203.297 Y181.747 E2.75182
G1 X203.14 Y182.419 E2.77477
G1 X202.991 Y182.939 E2.79277
G1 X202.742 Y183.662 E2.8182
G1 X202.503 Y184.272 E2.83999
G1 X202.33 Y184.664 E2.85424
G1 X201.901 Y185.501 E2.88552
G1 X201.572 Y186.075 E2.90753
G1 X201.265 Y186.555 E2.92648
G1 X200.821 Y187.177 E2.9519
G1 X200.448 Y187.649 E2.97191
G1 X199.985 Y188.182 E2.99539
G1 X199.552 Y188.635 E3.01623
G1 X199.027 Y189.13 E3.04023
G1 X198.568 Y189.526 E3.06039
G1 X198.063 Y189.922 E3.08174
G1 X197.45 Y190.353 E3.10666
G1 X196.853 Y190.729 E3.13013
G1 X196.285 Y191.046 E3.15176
G1 X195.683 Y191.348 E3.17416
G1 X195.093 Y191.612 E3.19566
G1 X194.492 Y191.845 E3.2171
G1 X193.817 Y192.067 E3.24073
G1 X193.176 Y192.247 E3.26288
G1 X192.553 Y192.39 E3.28414
G1 X192.023 Y192.486 E3.30205
G1 X191.294 Y192.582 E3.32651
G1 X190.611 Y192.649 E3.34933
G1 X190.231 Y192.663 E3.36198
G1 X189.483 Y192.657 E3.38686
G1 X188.528 Y192.605 E3.41867
G1 X188.008 Y192.546 E3.43608
G1 X187.282 Y192.429 E3.46054
G1 X186.703 Y192.315 E3.48016
G1 X186.045 Y192.147 E3.50275
G1 X185.437 Y191.96 E3.52391
G1 X184.763 Y191.713 E3.54778
G1 X184.139 Y191.448 E3.57033
G1 X183.601 Y191.191 E3.59016
G1 X182.901 Y190.817 E3.61656
G1 X182.405 Y190.515 E3.63587
G1 X181.751 Y190.07 E3.66218
G1 X181.286 Y189.72 E3.68154
G1 X180.748 Y189.276 E3.70474
G1 X180.257 Y188.829 E3.72683
G1 X179.771 Y188.346 E3.74962
G1 X179.467 Y188.015 E3.76456
G1 X178.885 Y187.297 E3.7953
G1 X178.495 Y186.767 E3.81719
G1 X178.124 Y186.214 E3.83934
G1 X177.898 Y185.843 E3.85379
G1 X177.49 Y185.094 E3.88216
G1 X177.277 Y184.657 E3.89832
G1 X176.929 Y183.822 E3.92841
G1 X176.717 Y183.236 E3.94914
G1 X176.526 Y182.604 E3.9711
G1 X176.357 Y181.953 E3.99347
G1 X176.223 Y181.324 E4.01486
G1 X176.125 Y180.719 E4.03524
G1 X176.064 Y180.175 E4.05345
G1 X176.012 Y179.272 E4.08353
G1 X176.005 Y178.589 E4.10625
G1 X176.027 Y178.023 E4.12509
G1 X176.094 Y177.274 E4.1501
G1 X176.159 Y176.791 E4.16631
G1 X176.317 Y175.971 E4.19409
G1 X176.476 Y175.305 E4.21686
G1 X176.65 Y174.698 E4.23786
G1 X176.868 Y174.059 E4.26032
G1 X177.108 Y173.464 E4.28166
G1 X177.399 Y172.832 E4.3048
G1 X177.691 Y172.255 E4.32631
G1 X177.959 Y171.781 E4.34442
G1 X178.384 Y171.119 E4.37058
G1 X178.743 Y170.61 E4.3913
G1 X179.158 Y170.078 E4.41374
G1 X179.538 Y169.642 E4.43298
G1 X180.089 Y169.066 E4.45949
G1 X180.517 Y168.654 E4.47925
G1 X181.064 Y168.175 E4.50343
G1 X181.332 Y167.961 E4.51484
G1 X182.127 Y167.394 E4.54732
G1 X182.523 Y167.137 E4.56302
G1 X183.298 Y166.694 E4.59271
G1 X183.742 Y166.465 E4.60932
G1 X184.522 Y166.117 E4.63773
G1 X185.095 Y165.89 E4.65823
G1 X185.469 Y165.759 E4.67141
G1 X186.405 Y165.489 E4.70381
G1 X186.996 Y165.347 E4.72403
G1 X187.328 Y165.282 E4.73528
G1 X188.314 Y165.147 E4.76838
G1 X188.698 Y165.109 E4.78122
G1 X188.333 Y165.042 E4.79356
G1 X187.529 Y164.85 E4.82105
G1 X186.944 Y164.688 E4.84124
G1 X186.313 Y164.483 E4.86331
G1 X185.746 Y164.277 E4.88337
G1 X185.328 Y164.107 E4.89838
G1 X184.554 Y163.743 E4.92683
G1 X184.104 Y163.511 E4.94367
G1 X183.309 Y163.047 E4.97428
G1 X182.554 Y162.552 E5.00431
G1 X181.906 Y162.073 E5.03111
G1 X181.503 Y161.747 E5.04835
G1 X180.928 Y161.236 E5.07394
G1 X180.482 Y160.797 E5.09475
G1 X180.046 Y160.337 E5.11583
G1 X179.616 Y159.844 E5.13759
G1 X179.184 Y159.304 E5.16059
G1 X178.834 Y158.822 E5.1804
G1 X178.465 Y158.271 E5.20246
G1 X178.149 Y157.754 E5.22261
G1 X177.821 Y157.16 E5.24518
G1 X177.561 Y156.636 E5.26464
G1 X177.295 Y156.058 E5.2858
G1 X177.047 Y155.451 E5.30761
G1 X176.851 Y154.894 E5.32725
G1 X176.638 Y154.204 E5.35127
G1 X176.485 Y153.618 E5.37141
G1 X176.351 Y153.004 E5.39231
G1 X176.242 Y152.395 E5.41289
G1 X176.162 Y151.792 E5.43312
G1 X176.106 Y151.142 E5.45482
G1 X176.066 Y150.452 E5.47781
G1 X176.06 Y149.796 E5.49963
G1 X176.085 Y149.223 E5.5187
G1 X176.125 Y148.59 E5.5398
G1 X176.193 Y147.973 E5.56045
G1 X176.261 Y147.523 E5.57558
G1 X176.424 Y146.716 E5.60297
G1 X176.569 Y146.125 E5.62321
G1 X176.761 Y145.468 E5.64597
G1 X176.954 Y144.894 E5.66611
G1 X177.2 Y144.254 E5.68892
G1 X177.449 Y143.671 E5.71
G1 X177.707 Y143.134 E5.72982
G1 X178.048 Y142.501 E5.75373
G1 X178.346 Y142.002 E5.77306
G1 X178.706 Y141.44 E5.79526
G1 X179.043 Y140.965 E5.81463
G1 X179.421 Y140.469 E5.83537
G0 F6000 X179.726 Y140.728
G1 F1200 X180.186 Y140.186 E5.85902
G1 X180.597 Y139.742 E5.87914
G1 X181.006 Y139.332 E5.8984
G1 X181.488 Y138.88 E5.92038
G1 X181.926 Y138.507 E5.93952
G1 X182.411 Y138.125 E5.96005
G1 X182.958 Y137.737 E5.98236
G1 X183.484 Y137.395 E6.00322
G1 X183.994 Y137.091 E6.02297
G1 X184.539 Y136.794 E6.04361
G1 X185.105 Y136.519 E6.06454
G1 X185.628 Y136.289 E6.08355
G1 X186.2 Y136.066 E6.10397
G1 X186.822 Y135.849 E6.12588
G1 X187.442 Y135.665 E6.14739
G1 X187.992 Y135.529 E6.16623
G1 X188.573 Y135.406 E6.18598
G1 X189.232 Y135.292 E6.20823
G1 X189.827 Y135.217 E6.22817
G1 X190.434 Y135.168 E6.24843
G1 X191.078 Y135.143 E6.26986
G1 X191.738 Y135.14 E6.29182
G1 X192.196 Y135.16 E6.30706
G1 X192.956 Y135.227 E6.33244
G1 X193.559 Y135.306 E6.35267
G1 X194.141 Y135.405 E6.3723
G1 X194.742 Y135.529 E6.39271
G1 X195.335 Y135.682 E6.41308
G1 X195.997 Y135.881 E6.43607
G1 X196.537 Y136.07 E6.4551
G1 X197.148 Y136.312 E6.47696
G1 X197.692 Y136.554 E6.49676
G1 X198.247 Y136.829 E6.51736
G1 X198.797 Y137.13 E6.53822
G1 X199.315 Y137.443 E6.55835
G1 X199.821 Y137.775 E6.57848
G1 X200.228 Y138.063 E6.59506
G1 X200.844 Y138.548 E6.62114
G1 X201.321 Y138.959 E6.64208
G1 X201.724 Y139.335 E6.66041
G1 X202.168 Y139.786 E6.68146
G1 X202.612 Y140.27 E6.7033
G1 X203.014 Y140.754 E6.72423
G1 X203.355 Y141.204 E6.74301
G1 X203.727 Y141.73 E6.76444
G1 X204.084 Y142.29 E6.78653
G1 X204.355 Y142.756 E6.80446
G1 X204.672 Y143.341 E6.82659
G1 X204.92 Y143.872 E6.84608
G1 X205.182 Y144.478 E6.86804
G1 X205.396 Y145.04 E6.88804
G1 X205.595 Y145.64 E6.90906
G1 X205.765 Y146.253 E6.93022
G1 X205.911 Y146.848 E6.9506
G1 X206.029 Y147.441 E6.97071
G1 X206.126 Y148.063 E6.99165
G1 X206.2 Y148.676 E7.01218
G1 X206.245 Y149.26 E7.03166
G1 X206.258 Y149.59 E7.04265
G1 X206.256 Y150.548 E7.07451
G1 X206.232 Y151.012 E7.08997
G1 X206.151 Y151.8 E7.11631
G1 X206.074 Y152.372 E7.13551
G1 X205.956 Y153.026 E7.15761
G1 X205.826 Y153.603 E7.17728
G1 X205.679 Y154.152 E7.19619
G1 X205.473 Y154.821 E7.21947
G1 X205.274 Y155.361 E7.23861
G1 X205.03 Y155.967 E7.26034
G1 X204.774 Y156.522 E7.28067
G1 X204.479 Y157.102 E7.30231
G1 X204.195 Y157.599 E7.32135
G1 X203.869 Y158.131 E7.3421
G1 X203.514 Y158.657 E7.36321
G1 X203.155 Y159.141 E7.38325
G1 X202.753 Y159.64 E7.40456
G1 X202.367 Y160.084 E7.42413
G1 X201.979 Y160.494 E7.44291
G1 X201.521 Y160.937 E7.4641
G1 X201.016 Y161.384 E7.48653
G1 X200.558 Y161.76 E7.50624
G1 X200.043 Y162.149 E7.52771
G1 X199.539 Y162.493 E7.548
G1 X199.016 Y162.823 E7.56857
G1 X198.472 Y163.131 E7.58936
G1 X197.919 Y163.417 E7.61007
G1 X197.335 Y163.686 E7.63145
G1 X196.779 Y163.917 E7.65148
G1 X196.165 Y164.143 E7.67324
G1 X195.593 Y164.324 E7.69319
G1 X194.998 Y164.484 E7.71369
G1 X194.387 Y164.628 E7.73457
G1 X193.781 Y164.742 E7.75508
G1 X193.196 Y164.825 E7.77473
G1 X192.559 Y164.888 E7.79602
G1 X191.909 Y164.929 E7.81768
G1 X191.246 Y164.939 E7.83973
G1 X190.085 Y164.883 E7.87839
G1 X189.435 Y164.817 E7.90012
G1 X188.86 Y164.731 E7.91946
G1 X188.405 Y164.648 E7.93484
G1 X187.636 Y164.465 E7.96114
G1 X187.067 Y164.307 E7.98078
G1 X186.45 Y164.107 E8.00235
G1 X185.897 Y163.906 E8.02192
G1 X185.479 Y163.736 E8.03693
G1 X184.737 Y163.387 E8.0642
G1 X184.287 Y163.155 E8.08104
G1 X183.528 Y162.712 E8.11027
G1 X182.792 Y162.23 E8.13953
G1 X182.144 Y161.751 E8.16633
G1 X181.769 Y161.448 E8.18237
G1 X181.194 Y160.937 E8.20795
G1 X180.772 Y160.522 E8.22764
G1 X180.347 Y160.074 E8.24818
G1 X179.928 Y159.594 E8.26937
G1 X179.507 Y159.068 E8.29178
G1 X179.166 Y158.6 E8.31104
G1 X178.806 Y158.062 E8.33257
G1 X178.499 Y157.561 E8.35211
G1 X178.179 Y156.982 E8.37411
G1 X177.924 Y156.469 E8.39317
G1 X177.665 Y155.907 E8.41375
G1 X177.424 Y155.318 E8.43492
G1 X177.233 Y154.776 E8.45403
G1 X177.025 Y154.103 E8.47746
G1 X176.876 Y153.533 E8.49705
G1 X176.745 Y152.933 E8.51748
G1 X176.639 Y152.342 E8.53745
G1 X176.559 Y151.739 E8.55768
G1 X176.505 Y151.119 E8.57838
G1 X176.466 Y150.448 E8.60074
G1 X176.46 Y149.813 E8.62186
G1 X176.484 Y149.248 E8.64067
G1 X176.523 Y148.634 E8.66113
G1 X176.589 Y148.033 E8.68124
G1 X176.657 Y147.583 E8.69638
G1 X176.813 Y146.811 E8.72257
G1 X176.953 Y146.237 E8.74222
G1 X177.14 Y145.595 E8.76446
G1 X177.327 Y145.038 E8.78401
G1 X177.568 Y144.411 E8.80635
G1 X177.81 Y143.844 E8.82685
G1 X178.059 Y143.324 E8.84603
G1 X178.392 Y142.706 E8.86938
G1 X178.683 Y142.218 E8.88827
G1 X179.033 Y141.671 E8.90987
G1 X179.361 Y141.207 E8.92877
G1 X179.726 Y140.728 E8.9488
G0 F6000 X180.031 Y140.987
G1 F1200 X180.48 Y140.457 E8.97191
G1 X180.88 Y140.024 E8.99151
G1 X181.28 Y139.623 E9.01035
G1 X181.747 Y139.184 E9.03167
G1 X182.173 Y138.821 E9.05028
G1 X182.643 Y138.451 E9.07018
G1 X183.176 Y138.072 E9.09193
G1 X183.689 Y137.738 E9.11229
G1 X184.185 Y137.442 E9.1315
G1 X184.714 Y137.154 E9.15153
G1 X185.266 Y136.885 E9.17196
G1 X185.774 Y136.662 E9.19041
G1 X186.332 Y136.444 E9.21034
G1 X186.954 Y136.227 E9.23225
G1 X187.538 Y136.053 E9.25251
G1 X188.075 Y135.92 E9.27091
G1 X188.641 Y135.8 E9.29016
G1 X189.282 Y135.689 E9.3118
G1 X189.859 Y135.616 E9.33114
G1 X190.45 Y135.568 E9.35086
G1 X191.08 Y135.543 E9.37183
G1 X191.721 Y135.54 E9.39315
G1 X192.179 Y135.56 E9.4084
G1 X192.904 Y135.624 E9.43261
G1 X193.507 Y135.703 E9.45283
G1 X194.06 Y135.797 E9.47149
G1 X194.661 Y135.921 E9.4919
G1 X195.22 Y136.065 E9.5111
G1 X195.865 Y136.258 E9.53349
G1 X196.39 Y136.442 E9.552
G1 X196.985 Y136.677 E9.57327
G1 X197.515 Y136.913 E9.59257
G1 X198.055 Y137.18 E9.61261
G1 X198.59 Y137.472 E9.63288
G1 X199.095 Y137.777 E9.6525
G1 X199.59 Y138.102 E9.67219
G1 X199.997 Y138.39 E9.68878
G1 X200.583 Y138.851 E9.71358
G1 X201.048 Y139.251 E9.73398
G1 X201.439 Y139.616 E9.75177
G1 X201.873 Y140.056 E9.77232
G1 X202.304 Y140.526 E9.79353
G1 X202.695 Y140.996 E9.81387
G1 X203.028 Y141.435 E9.83219
G1 X203.4 Y141.961 E9.85362
G1 X203.738 Y142.491 E9.87453
G1 X204.003 Y142.947 E9.89207
G1 X204.32 Y143.532 E9.9142
G1 X204.553 Y144.031 E9.93252
G1 X204.808 Y144.621 E9.9539
G1 X205.016 Y145.166 E9.9733
G1 X205.215 Y145.766 E9.99432
G1 X205.377 Y146.349 E10.01445
G1 X205.519 Y146.926 E10.03421
G1 X205.634 Y147.503 E10.05378
G1 X205.729 Y148.111 E10.07425
G1 X205.801 Y148.707 E10.09422
G1 X205.845 Y149.277 E10.11323
G1 X205.858 Y149.59 E10.12365
G1 X205.857 Y150.527 E10.15482
G1 X205.834 Y150.971 E10.1696
G1 X205.755 Y151.746 E10.19551
G1 X205.68 Y152.301 E10.21414
G1 X205.562 Y152.955 E10.23624
G1 X205.44 Y153.5 E10.25482
G1 X205.297 Y154.034 E10.27321
G1 X205.097 Y154.683 E10.29579
G1 X204.903 Y155.212 E10.31453
G1 X204.667 Y155.799 E10.33558
G1 X204.417 Y156.341 E10.35543
G1 X204.122 Y156.921 E10.37707
G1 X203.854 Y157.39 E10.39504
G1 X203.537 Y157.907 E10.41521
G1 X203.182 Y158.433 E10.43631
G1 X202.843 Y158.89 E10.45524
G1 X202.451 Y159.378 E10.47606
G1 X202.077 Y159.809 E10.49504
G1 X201.701 Y160.206 E10.51322
G1 X201.243 Y160.649 E10.53442
G1 X200.762 Y161.075 E10.55579
G1 X200.317 Y161.441 E10.57495
G1 X199.817 Y161.819 E10.5958
G1 X199.326 Y162.155 E10.61559
G1 X198.818 Y162.475 E10.63556
G1 X198.288 Y162.776 E10.65583
G1 X197.752 Y163.054 E10.67591
G1 X197.181 Y163.317 E10.69682
G1 X196.64 Y163.542 E10.71631
G1 X196.044 Y163.762 E10.73744
G1 X195.489 Y163.938 E10.7568
G1 X194.906 Y164.095 E10.77689
G1 X194.313 Y164.235 E10.79715
