;FLAVOR:Marlin
;TIME:2013
;Filament used: 1.00773m
;Layer height: 0.2
;MINX:182.117
;MINY:153.931
;MINZ:0.2
;MAXX:212.715
;MAXY:204.816
;MAXZ:31
;Generated with Cura_SteamEngine 5.3.0
M140 S60
M105
M190 S60
M104 S200
M105
M109 S200
M82 ;absolute extrusion mode
; Ender 3 S1 Pro Start G-code
G28 ;Home
G92 E0 ;Reset Extruder
G1 Z2.0 F3000 ;Move Z Axis up
G1 X10.1 Y20 Z0.28 F5000.0 ;Move to start position
G1 X10.1 Y200.0 Z0.28 F1500.0 E15 ;Draw the first line
G1 X10.4 Y200.0 Z0.28 F5000.0 ;Move to side a little
G1 X10.4 Y20 Z0.28 F1500.0 E30 ;Draw the second line
G92 E0 ;Reset Extruder
G1 Z2.0 F3000 ;Move Z Axis up

G92 E0
G92 E0
G1 F2400 E-0.8
;LAYER_COUNT:155
;LAYER:0
M107
G0 F6000 X186.678 Y159.055 Z0.2
;TYPE:SKIRT
G1 F2400 E0
G1 F1200 X187.239 Y158.408 E0.02848
G1 X187.64 Y157.985 E0.04787
G1 X188.192 Y157.463 E0.07314
G1 X188.679 Y157.04 E0.09459
G1 X189.038 Y156.756 E0.10982
G1 X189.761 Y156.248 E0.13921
G1 X190.305 Y155.905 E0.1606
G1 X190.91 Y155.56 E0.18376
G1 X191.518 Y155.254 E0.2064
G1 X192.104 Y154.992 E0.22775
G1 X192.726 Y154.75 E0.24995
G1 X193.403 Y154.527 E0.27365
G1 X194.044 Y154.347 E0.2958
G1 X194.667 Y154.204 E0.31706
G1 X195.197 Y154.108 E0.33497
G1 X195.924 Y154.012 E0.35936
G1 X196.597 Y153.945 E0.38186
G1 X196.88 Y153.931 E0.39128
G1 X197.614 Y153.931 E0.4157
G1 X198.696 Y153.99 E0.45174
G1 X199.235 Y154.051 E0.46978
G1 X199.943 Y154.166 E0.49363
G1 X200.536 Y154.283 E0.51374
G1 X201.084 Y154.424 E0.53256
G1 X201.906 Y154.68 E0.56119
G1 X202.431 Y154.871 E0.57977
G1 X203.067 Y155.136 E0.60269
G1 X203.562 Y155.37 E0.6209
G1 X204.284 Y155.758 E0.64816
G1 X204.837 Y156.095 E0.6697
G1 X205.462 Y156.519 E0.69482
G1 X205.948 Y156.883 E0.71502
G1 X206.462 Y157.307 E0.73718
G1 X206.985 Y157.787 E0.76079
G1 X207.448 Y158.247 E0.7825
G1 X207.751 Y158.577 E0.7974
G1 X208.332 Y159.289 E0.82796
G1 X208.688 Y159.771 E0.84789
G1 X209.071 Y160.337 E0.87062
G1 X209.329 Y160.761 E0.88713
G1 X209.736 Y161.509 E0.91545
G1 X209.929 Y161.905 E0.93011
G1 X210.277 Y162.739 E0.96016
G1 X210.514 Y163.381 E0.98292
G1 X210.667 Y163.869 E0.99993
G1 X210.865 Y164.646 E1.0266
G1 X211.012 Y165.369 E1.05114
G1 X211.1 Y165.965 E1.07118
G1 X211.16 Y166.504 E1.08922
G1 X211.208 Y167.324 E1.11654
G1 X211.215 Y168.014 E1.13949
G1 X211.188 Y168.623 E1.15976
G1 X211.158 Y169.009 E1.17264
G1 X211.029 Y169.959 E1.20453
G1 X210.909 Y170.606 E1.22642
G1 X210.764 Y171.228 E1.24766
G1 X210.58 Y171.871 E1.2699
G1 X210.465 Y172.222 E1.28219
G1 X210.098 Y173.156 E1.31556
G1 X209.817 Y173.78 E1.33833
G1 X209.543 Y174.31 E1.35817
G1 X209.196 Y174.919 E1.38148
G1 X208.923 Y175.352 E1.39851
G1 X208.471 Y175.991 E1.42454
G1 X208.042 Y176.536 E1.44761
G1 X207.638 Y177.001 E1.4681
G1 X207.049 Y177.621 E1.49654
G1 X207.62 Y178.114 E1.52163
G1 X208.059 Y178.524 E1.54161
G1 X208.528 Y178.996 E1.56374
G1 X208.91 Y179.412 E1.58253
G1 X209.386 Y179.991 E1.60746
G1 X209.755 Y180.472 E1.62762
G1 X210.108 Y180.969 E1.6479
G1 X210.464 Y181.525 E1.66985
G1 X210.784 Y182.082 E1.69122
G1 X211.104 Y182.682 E1.71384
G1 X211.369 Y183.241 E1.73441
G1 X211.597 Y183.779 E1.75385
G1 X211.841 Y184.415 E1.7765
G1 X212.053 Y185.063 E1.79918
G1 X212.219 Y185.652 E1.81953
G1 X212.351 Y186.195 E1.83812
G1 X212.464 Y186.737 E1.85653
G1 X212.578 Y187.477 E1.88144
G1 X212.656 Y188.121 E1.90301
G1 X212.702 Y188.719 E1.92296
G1 X212.715 Y189.032 E1.93338
G1 X212.715 Y190.023 E1.96634
G1 X212.699 Y190.378 E1.97816
G1 X212.608 Y191.321 E2.00967
G1 X212.532 Y191.892 E2.02883
G1 X212.416 Y192.536 E2.05059
G1 X212.275 Y193.168 E2.07213
G1 X212.112 Y193.78 E2.0932
G1 X211.934 Y194.356 E2.11325
G1 X211.699 Y194.996 E2.13592
G1 X211.474 Y195.56 E2.15612
G1 X211.205 Y196.147 E2.1776
G1 X210.89 Y196.763 E2.20061
G1 X210.571 Y197.326 E2.22213
G1 X209.988 Y198.236 E2.25808
G1 X209.523 Y198.869 E2.2842
G1 X209.114 Y199.381 E2.306
G1 X208.755 Y199.791 E2.32412
G1 X208.184 Y200.388 E2.3516
G1 X207.537 Y200.995 E2.3811
G1 X206.832 Y201.574 E2.41145
G1 X206.345 Y201.936 E2.43163
G1 X205.83 Y202.296 E2.45253
G1 X205.262 Y202.657 E2.47491
G1 X204.773 Y202.935 E2.49362
G1 X204.149 Y203.254 E2.51693
G1 X203.57 Y203.525 E2.53819
G1 X203.016 Y203.756 E2.55816
G1 X202.428 Y203.973 E2.579
G1 X201.795 Y204.175 E2.6011
G1 X201.178 Y204.349 E2.62243
G1 X200.57 Y204.489 E2.64318
G1 X199.937 Y204.604 E2.66457
G1 X199.279 Y204.703 E2.68671
G1 X198.65 Y204.763 E2.70772
G1 X197.974 Y204.806 E2.73025
G1 X197.297 Y204.816 E2.75277
G1 X196.732 Y204.794 E2.77158
G1 X196.089 Y204.757 E2.793
G1 X195.59 Y204.706 E2.80968
G1 X194.703 Y204.571 E2.83952
G1 X193.796 Y204.384 E2.87032
G1 X193.015 Y204.167 E2.89728
G1 X192.33 Y203.944 E2.92125
G1 X191.796 Y203.743 E2.94022
G1 X191.201 Y203.495 E2.96166
G1 X190.582 Y203.202 E2.98444
G1 X190.038 Y202.916 E3.00488
G1 X189.522 Y202.622 E3.02463
G1 X188.99 Y202.284 E3.0456
G1 X188.431 Y201.897 E3.06821
G1 X187.941 Y201.524 E3.08869
G1 X187.477 Y201.145 E3.10862
G1 X186.965 Y200.693 E3.13134
G1 X186.617 Y200.356 E3.14745
G1 X186.09 Y199.801 E3.1729
G1 X185.706 Y199.359 E3.19238
G1 X185.256 Y198.797 E3.21632
G1 X184.853 Y198.244 E3.23908
G1 X184.536 Y197.768 E3.2581
G1 X184.212 Y197.241 E3.27868
G1 X183.89 Y196.66 E3.30077
G1 X183.602 Y196.09 E3.32201
G1 X183.341 Y195.51 E3.34317
G1 X183.108 Y194.924 E3.36414
G1 X182.889 Y194.313 E3.38573
G1 X182.698 Y193.694 E3.40728
G1 X182.536 Y193.074 E3.42859
G1 X182.408 Y192.488 E3.44854
G1 X182.298 Y191.874 E3.46929
G1 X182.218 Y191.266 E3.48968
G1 X182.163 Y190.618 E3.51131
G1 X182.123 Y189.928 E3.5343
G1 X182.117 Y189.272 E3.55612
G1 X182.142 Y188.696 E3.5753
G1 X182.185 Y188.062 E3.59643
G1 X182.242 Y187.561 E3.6132
G1 X182.366 Y186.779 E3.63954
G1 X182.481 Y186.201 E3.65914
G1 X182.65 Y185.512 E3.68273
G1 X182.818 Y184.945 E3.7024
G1 X183.041 Y184.284 E3.72561
G1 X183.258 Y183.73 E3.74539
G1 X183.5 Y183.165 E3.76584
G1 X183.795 Y182.553 E3.78843
G1 X184.073 Y182.034 E3.80802
G1 X184.403 Y181.463 E3.82995
G1 X184.677 Y181.037 E3.8468
G1 X185.137 Y180.387 E3.87328
G1 X185.466 Y179.962 E3.89116
G1 X185.935 Y179.403 E3.91543
G1 X186.345 Y178.956 E3.9356
G1 X186.816 Y178.487 E3.95771
G1 X187.286 Y178.054 E3.97897
G1 X187.795 Y177.626 E4.00108
G1 X187.392 Y177.225 E4.01999
G1 X187.144 Y176.957 E4.03214
G1 X186.462 Y176.12 E4.06805
G1 X186.099 Y175.621 E4.08857
G1 X185.742 Y175.087 E4.10994
G1 X185.442 Y174.591 E4.12922
G1 X185.103 Y173.961 E4.15301
G1 X184.794 Y173.31 E4.17698
G1 X184.564 Y172.759 E4.19684
G1 X184.322 Y172.092 E4.22044
G1 X184.153 Y171.551 E4.23929
G1 X183.973 Y170.847 E4.26346
G1 X183.829 Y170.159 E4.28684
G1 X183.737 Y169.566 E4.30679
G1 X183.663 Y168.817 E4.33183
G1 X183.622 Y168.135 E4.35455
G1 X183.615 Y167.449 E4.37737
G1 X183.64 Y166.836 E4.39778
G1 X183.696 Y166.191 E4.41931
G1 X183.77 Y165.652 E4.4374
G1 X183.932 Y164.808 E4.46599
G1 X184.089 Y164.163 E4.48807
G1 X184.263 Y163.561 E4.50891
G1 X184.478 Y162.925 E4.53124
G1 X184.72 Y162.322 E4.55285
G1 X185.015 Y161.678 E4.57641
G1 X185.296 Y161.13 E4.59689
G1 X185.643 Y160.53 E4.61995
G1 X185.952 Y160.044 E4.6391
G1 X186.394 Y159.42 E4.66453
G1 X186.678 Y159.055 E4.67992
G0 F6000 X186.994 Y159.301
G1 F1200 X187.53 Y158.683 E4.70712
G1 X187.915 Y158.276 E4.72576
G1 X188.455 Y157.765 E4.75049
G1 X188.928 Y157.353 E4.77135
G1 X189.268 Y157.083 E4.78579
G1 X189.974 Y156.586 E4.81451
G1 X190.504 Y156.252 E4.83534
G1 X191.09 Y155.917 E4.85779
G1 X191.681 Y155.619 E4.87981
G1 X192.249 Y155.365 E4.9005
G1 X192.852 Y155.13 E4.92203
G1 X193.511 Y154.912 E4.94511
G1 X194.134 Y154.737 E4.96664
G1 X194.739 Y154.598 E4.98728
G1 X195.25 Y154.505 E5.00456
G1 X195.964 Y154.41 E5.02851
G1 X196.617 Y154.345 E5.05034
G1 X196.9 Y154.331 E5.05977
G1 X197.614 Y154.331 E5.08351
G1 X198.651 Y154.387 E5.11805
G1 X199.171 Y154.446 E5.13546
G1 X199.865 Y154.558 E5.15884
G1 X200.437 Y154.671 E5.17823
G1 X200.965 Y154.806 E5.19636
G1 X201.77 Y155.056 E5.2244
G1 X202.277 Y155.24 E5.24234
G1 X202.896 Y155.498 E5.26464
G1 X203.391 Y155.732 E5.28285
G1 X204.076 Y156.1 E5.30871
G1 X204.629 Y156.437 E5.33025
G1 X205.222 Y156.839 E5.35408
G1 X205.693 Y157.192 E5.37366
G1 X206.207 Y157.616 E5.39582
G1 X206.703 Y158.071 E5.41821
G1 X207.153 Y158.518 E5.4393
G1 X207.456 Y158.848 E5.4542
G1 X208.01 Y159.527 E5.48335
G1 X208.366 Y160.009 E5.50328
G1 X208.729 Y160.545 E5.52481
G1 X208.987 Y160.969 E5.54132
G1 X209.376 Y161.684 E5.56839
G1 X209.569 Y162.08 E5.58304
G1 X209.902 Y162.878 E5.6118
G1 X210.132 Y163.501 E5.63389
G1 X210.279 Y163.968 E5.65018
G1 X210.473 Y164.726 E5.6762
G1 X210.616 Y165.427 E5.69999
G1 X210.702 Y166.009 E5.71956
G1 X210.762 Y166.548 E5.7376
G1 X210.808 Y167.328 E5.76359
G1 X210.815 Y167.997 E5.78584
G1 X210.789 Y168.592 E5.80565
G1 X210.759 Y168.978 E5.81853
G1 X210.636 Y169.886 E5.849
G1 X210.52 Y170.515 E5.87028
G1 X210.379 Y171.118 E5.89087
G1 X210.2 Y171.746 E5.91259
G1 X210.085 Y172.097 E5.92488
G1 X209.733 Y172.992 E5.95686
G1 X209.462 Y173.596 E5.97888
G1 X209.195 Y174.112 E5.99821
G1 X208.857 Y174.706 E6.02094
G1 X208.596 Y175.121 E6.03724
G1 X208.144 Y175.76 E6.06328
G1 X207.74 Y176.274 E6.08502
G1 X207.348 Y176.725 E6.10489
G1 X206.866 Y177.232 E6.12816
G1 X206.426 Y177.65 E6.14835
G1 X206.924 Y178.042 E6.16943
G1 X207.358 Y178.417 E6.1885
G1 X207.775 Y178.806 E6.20747
G1 X208.233 Y179.267 E6.22908
G1 X208.615 Y179.683 E6.24787
G1 X209.069 Y180.235 E6.27164
G1 X209.429 Y180.704 E6.29131
G1 X209.771 Y181.185 E6.31094
G1 X210.117 Y181.724 E6.33224
G1 X210.431 Y182.27 E6.35319
G1 X210.743 Y182.854 E6.37521
G1 X211.001 Y183.397 E6.3952
G1 X211.224 Y183.923 E6.41421
G1 X211.461 Y184.539 E6.43616
G1 X211.668 Y185.172 E6.45831
G1 X211.83 Y185.746 E6.47815
G1 X211.959 Y186.277 E6.49632
G1 X212.072 Y186.819 E6.51474
G1 X212.181 Y187.525 E6.5385
G1 X212.257 Y188.152 E6.5595
G1 X212.302 Y188.736 E6.57898
G1 X212.315 Y189.049 E6.5894
G1 X212.315 Y190.005 E6.6212
G1 X212.299 Y190.36 E6.63302
G1 X212.212 Y191.268 E6.66336
G1 X212.138 Y191.821 E6.68192
G1 X212.022 Y192.465 E6.70368
G1 X211.888 Y193.066 E6.72416
G1 X211.73 Y193.662 E6.74467
G1 X211.558 Y194.219 E6.76406
G1 X211.328 Y194.848 E6.78633
G1 X211.11 Y195.394 E6.80589
G1 X210.849 Y195.965 E6.82677
G1 X210.542 Y196.566 E6.84921
G1 X210.234 Y197.11 E6.87001
G1 X209.651 Y198.02 E6.90595
G1 X209.211 Y198.619 E6.93067
G1 X208.813 Y199.117 E6.95187
G1 X208.454 Y199.527 E6.97
G1 X207.91 Y200.096 E6.99618
G1 X207.263 Y200.703 E7.02569
G1 X206.594 Y201.253 E7.0545
G1 X206.116 Y201.608 E7.0743
G1 X205.615 Y201.958 E7.09463
G1 X205.047 Y202.319 E7.11701
G1 X204.591 Y202.579 E7.13447
G1 X203.979 Y202.892 E7.15733
G1 X203.416 Y203.156 E7.17801
G1 X202.877 Y203.381 E7.19744
G1 X202.306 Y203.592 E7.21769
G1 X201.686 Y203.79 E7.23933
G1 X201.088 Y203.959 E7.26
G1 X200.499 Y204.095 E7.28011
G1 X199.877 Y204.208 E7.30113
G1 X199.219 Y204.307 E7.32327
G1 X198.624 Y204.364 E7.34315
G1 X197.968 Y204.406 E7.36501
G1 X197.312 Y204.416 E7.38683
G1 X196.755 Y204.395 E7.40537
G1 X196.13 Y204.359 E7.42619
G1 X195.631 Y204.308 E7.44288
G1 X194.784 Y204.179 E7.47137
G1 X193.877 Y203.992 E7.50217
G1 X193.139 Y203.787 E7.52765
G1 X192.471 Y203.57 E7.55101
G1 X191.95 Y203.374 E7.56952
G1 X191.372 Y203.133 E7.59035
G1 X190.768 Y202.848 E7.61257
G1 X190.236 Y202.568 E7.63256
G1 X189.737 Y202.284 E7.65166
G1 X189.205 Y201.946 E7.67262
G1 X188.659 Y201.568 E7.69471
G1 X188.194 Y201.214 E7.71415
G1 X187.742 Y200.845 E7.73355
G1 X187.243 Y200.405 E7.75568
G1 X186.907 Y200.081 E7.77121
G1 X186.392 Y199.538 E7.7961
G1 X186.018 Y199.109 E7.81503
G1 X185.579 Y198.561 E7.83838
G1 X185.186 Y198.022 E7.86057
G1 X184.877 Y197.558 E7.87911
G1 X184.562 Y197.047 E7.89907
G1 X184.247 Y196.48 E7.92065
G1 X183.967 Y195.926 E7.94129
G1 X183.713 Y195.362 E7.96187
G1 X183.485 Y194.789 E7.98238
G1 X183.266 Y194.178 E8.00397
G1 X183.085 Y193.593 E8.02433
G1 X182.927 Y192.989 E8.0451
G1 X182.802 Y192.417 E8.06457
G1 X182.695 Y191.821 E8.08471
G1 X182.617 Y191.232 E8.10447
G1 X182.562 Y190.595 E8.12574
G1 X182.523 Y189.924 E8.14809
G1 X182.517 Y189.289 E8.16921
G1 X182.541 Y188.723 E8.18806
G1 X182.582 Y188.107 E8.20859
G1 X182.637 Y187.623 E8.22479
G1 X182.758 Y186.857 E8.25058
G1 X182.87 Y186.296 E8.26961
G1 X183.034 Y185.626 E8.29255
G1 X183.202 Y185.059 E8.31222
G1 X183.413 Y184.43 E8.33429
G1 X183.626 Y183.887 E8.35369
G1 X183.868 Y183.322 E8.37413
G1 X184.147 Y182.742 E8.39554
G1 X184.42 Y182.234 E8.41472
G1 X184.74 Y181.679 E8.43603
G1 X185.004 Y181.268 E8.45228
G1 X185.454 Y180.632 E8.47819
G1 X185.773 Y180.219 E8.49555
G1 X186.23 Y179.673 E8.51923
G1 X186.627 Y179.239 E8.53879
G1 X187.087 Y178.781 E8.56038
G1 X187.544 Y178.359 E8.58107
G1 X188.011 Y177.964 E8.60141
G1 X188.413 Y177.65 E8.61838
G1 X188.115 Y177.38 E8.63175
G1 X187.686 Y176.953 E8.65189
G1 X187.438 Y176.685 E8.66403
G1 X186.785 Y175.884 E8.6984
G1 X186.431 Y175.398 E8.7184
G1 X186.084 Y174.88 E8.73914
G1 X185.794 Y174.401 E8.75776
G1 X185.464 Y173.789 E8.78089
G1 X185.163 Y173.156 E8.8042
G1 X184.94 Y172.622 E8.82345
G1 X184.704 Y171.973 E8.84642
G1 X184.541 Y171.452 E8.86457
G1 X184.361 Y170.748 E8.88874
G1 X184.224 Y170.097 E8.91087
G1 X184.135 Y169.526 E8.93009
G1 X184.062 Y168.793 E8.95459
G1 X184.022 Y168.131 E8.97665
G1 X184.015 Y167.465 E8.9988
G1 X184.039 Y166.871 E9.01857
G1 X184.095 Y166.226 E9.04011
G1 X184.163 Y165.727 E9.05686
G1 X184.321 Y164.902 E9.08479
G1 X184.473 Y164.274 E9.10629
G1 X184.642 Y163.689 E9.12654
G1 X184.849 Y163.074 E9.14812
G1 X185.084 Y162.488 E9.16912
G1 X185.371 Y161.861 E9.19206
G1 X185.652 Y161.313 E9.21254
G1 X185.981 Y160.745 E9.23437
G1 X186.29 Y160.259 E9.25353
G1 X186.71 Y159.666 E9.27769
G1 X186.994 Y159.301 E9.29308
G0 F6000 X187.31 Y159.547
G1 F1200 X187.821 Y158.958 E9.31901
G1 X188.206 Y158.551 E9.33765
G1 X188.718 Y158.066 E9.3611
G1 X189.176 Y157.666 E9.38133
G1 X189.499 Y157.41 E9.39503
G1 X190.188 Y156.924 E9.42308
G1 X190.702 Y156.599 E9.4433
G1 X191.271 Y156.274 E9.4651
G1 X191.844 Y155.984 E9.48646
G1 X192.395 Y155.738 E9.50653
G1 X192.978 Y155.51 E9.52735
G1 X193.619 Y155.297 E9.54982
G1 X194.224 Y155.127 E9.57072
G1 X194.811 Y154.992 E9.59075
G1 X195.322 Y154.899 E9.60803
G1 X196.004 Y154.808 E9.63091
G1 X196.637 Y154.745 E9.65207
G1 X196.92 Y154.731 E9.66149
G1 X197.614 Y154.731 E9.68457
G1 X198.606 Y154.784 E9.71762
G1 X199.108 Y154.841 E9.73442
G1 X199.787 Y154.95 E9.75729
G1 X200.338 Y155.059 E9.77597
G1 X200.866 Y155.194 E9.7941
G1 X201.634 Y155.432 E9.82084
G1 X202.123 Y155.609 E9.83814
G1 X202.726 Y155.86 E9.85986
G1 X203.202 Y156.084 E9.87736
G1 X203.868 Y156.442 E9.90251
G1 X204.421 Y156.779 E9.92405
G1 X204.982 Y157.159 E9.94659
G1 X205.438 Y157.501 E9.96554
G1 X205.952 Y157.925 E9.9877
G1 X206.421 Y158.354 E10.00885
G1 X206.858 Y158.789 E10.02935
G1 X207.161 Y159.119 E10.04425
G1 X207.688 Y159.765 E10.07198
G1 X208.035 Y160.234 E10.09139
G1 X208.387 Y160.753 E10.11225
G1 X208.645 Y161.177 E10.12875
G1 X209.016 Y161.859 E10.15458
G1 X209.209 Y162.255 E10.16923
G1 X209.527 Y163.017 E10.19669
G1 X209.75 Y163.621 E10.2181
G1 X209.897 Y164.088 E10.23439
G1 X210.081 Y164.806 E10.25904
G1 X210.22 Y165.486 E10.28213
G1 X210.304 Y166.053 E10.30119
G1 X210.364 Y166.592 E10.31923
G1 X210.408 Y167.332 E10.34388
G1 X210.415 Y167.98 E10.36544
G1 X210.39 Y168.561 E10.38478
G1 X210.36 Y168.947 E10.39766
G1 X210.243 Y169.814 E10.42675
G1 X210.131 Y170.424 E10.44738
G1 X209.994 Y171.009 E10.46737
G1 X209.82 Y171.621 E10.48853
G1 X209.705 Y171.972 E10.50081
G1 X209.368 Y172.829 E10.53144
G1 X209.107 Y173.412 E10.55269
G1 X208.847 Y173.915 E10.57152
G1 X208.519 Y174.493 E10.59362
G1 X208.269 Y174.89 E10.60923
G1 X207.829 Y175.513 E10.6346
G1 X207.438 Y176.012 E10.65568
G1 X207.058 Y176.45 E10.67497
G1 X206.591 Y176.942 E10.69753
G1 X206.158 Y177.353 E10.71739
G1 X205.787 Y177.678 E10.73379
G1 X206.136 Y177.93 E10.74811
G1 X206.663 Y178.345 E10.77042
G1 X207.085 Y178.709 E10.78895
G1 X207.491 Y179.088 E10.80743
G1 X207.938 Y179.538 E10.82852
G1 X208.32 Y179.954 E10.84731
G1 X208.752 Y180.479 E10.86992
G1 X209.103 Y180.936 E10.88909
G1 X209.434 Y181.401 E10.90807
G1 X209.77 Y181.924 E10.92875
G1 X210.078 Y182.459 E10.94928
