;FLAVOR:Marlin
;TIME:1852
;Filament used: 0.906403m
;Layer height: 0.2
;MINX:102.714
;MINY:91.519
;MINZ:0.2
;MAXX:157.146
;MAXY:128.482
;MAXZ:31
;Generated with Cura_SteamEngine 5.3.0
M140 S60
M105
M190 S60
M104 S200
M105
M109 S200
M82 ;absolute extrusion mode
; Ender 3 S1 Pro Start G-code
G28 ;Home
G92 E0 ;Reset Extruder
G1 Z2.0 F3000 ;Move Z Axis up
G1 X10.1 Y20 Z0.28 F5000.0 ;Move to start position
G1 X10.1 Y200.0 Z0.28 F1500.0 E15 ;Draw the first line
G1 X10.4 Y200.0 Z0.28 F5000.0 ;Move to side a little
G1 X10.4 Y20 Z0.28 F1500.0 E30 ;Draw the second line
G92 E0 ;Reset Extruder
G1 Z2.0 F3000 ;Move Z Axis up

G92 E0
G92 E0
G1 F2400 E-0.8
;LAYER_COUNT:155
;LAYER:0
M107
G0 F6000 X108.032 Y98.194 Z0.2
;TYPE:SKIRT
G1 F2400 E0
G1 F1200 X108.335 Y97.867 E0.01483
G1 X108.986 Y97.21 E0.04559
G1 X109.632 Y96.621 E0.07467
G1 X110.103 Y96.228 E0.09507
G1 X110.763 Y95.722 E0.12273
G1 X111.264 Y95.369 E0.14311
G1 X112 Y94.896 E0.17221
G1 X112.72 Y94.486 E0.19977
G1 X113.413 Y94.127 E0.22573
G1 X114.107 Y93.806 E0.25116
G1 X114.735 Y93.546 E0.27377
G1 X115.453 Y93.281 E0.29922
G1 X115.901 Y93.131 E0.31494
G1 X116.714 Y92.896 E0.34308
G1 X117.507 Y92.71 E0.37017
G1 X117.874 Y92.636 E0.38263
G1 X118.597 Y92.513 E0.40702
G1 X119.325 Y92.421 E0.43143
G1 X119.774 Y92.379 E0.44642
G1 X120.546 Y92.331 E0.47215
G1 X120.901 Y92.319 E0.48397
G1 X121.791 Y92.328 E0.51357
G1 X122.352 Y92.358 E0.53225
G1 X122.808 Y92.392 E0.54746
G1 X123.396 Y92.45 E0.56711
G1 X124.055 Y92.537 E0.58922
G1 X125.714 Y92.811 E0.64515
G1 X128.218 Y93.151 E0.7292
G1 X130.777 Y93.426 E0.8148
G1 X133.284 Y93.624 E0.89844
G1 X135.837 Y93.752 E0.98346
G1 X138.367 Y93.809 E1.06763
G1 X140.058 Y93.807 E1.12387
G1 X140.539 Y93.814 E1.13987
G1 X141.185 Y93.844 E1.16138
G1 X141.582 Y93.875 E1.17463
G1 X142.512 Y93.991 E1.2058
G1 X143.299 Y94.126 E1.23236
G1 X144.153 Y94.31 E1.26141
G1 X144.899 Y94.52 E1.28719
G1 X145.206 Y94.618 E1.29791
G1 X145.866 Y94.85 E1.32118
G1 X146.622 Y95.157 E1.34832
G1 X147.295 Y95.468 E1.37297
G1 X147.988 Y95.829 E1.39896
G1 X148.476 Y96.11 E1.41769
G1 X149.098 Y96.503 E1.44216
G1 X149.781 Y96.981 E1.46989
G1 X150.021 Y97.162 E1.47989
G1 X150.568 Y97.601 E1.50322
G1 X151.189 Y98.152 E1.53083
G1 X151.723 Y98.672 E1.55562
G1 X152.076 Y99.042 E1.57263
G1 X152.584 Y99.622 E1.59827
G1 X152.769 Y99.848 E1.60799
G1 X153.253 Y100.482 E1.63452
G1 X153.719 Y101.16 E1.66188
G1 X154.092 Y101.758 E1.68532
G1 X154.488 Y102.469 E1.71239
G1 X154.819 Y103.134 E1.7371
G1 X155.156 Y103.908 E1.76517
G1 X155.417 Y104.593 E1.78955
G1 X155.662 Y105.345 E1.81586
G1 X155.829 Y105.947 E1.83664
G1 X155.923 Y106.331 E1.84979
G1 X156.112 Y107.306 E1.88282
G1 X156.224 Y108.086 E1.90903
G1 X156.31 Y108.924 E1.93705
G1 X156.326 Y109.19 E1.94591
G1 X156.346 Y109.988 E1.97246
G1 X156.339 Y110.493 E1.98926
G1 X156.299 Y111.24 E2.01414
G1 X156.274 Y111.533 E2.02392
G1 X156.212 Y112.084 E2.04236
G1 X156.113 Y112.743 E2.06453
G1 X156.065 Y113.013 E2.07365
G1 X155.939 Y113.612 E2.09401
G1 X155.749 Y114.363 E2.11977
G1 X155.527 Y115.088 E2.14499
G1 X155.25 Y115.856 E2.17215
G1 X154.965 Y116.544 E2.19691
G1 X154.635 Y117.244 E2.22265
G1 X154.489 Y117.529 E2.2333
G1 X154.14 Y118.161 E2.25732
G1 X153.71 Y118.855 E2.28447
G1 X153.419 Y119.285 E2.30174
G1 X152.955 Y119.916 E2.32779
G1 X152.786 Y120.13 E2.33686
G1 X152.281 Y120.728 E2.36289
G1 X151.759 Y121.292 E2.38845
G1 X151.404 Y121.644 E2.40508
G1 X150.811 Y122.19 E2.43189
G1 X150.585 Y122.384 E2.4418
G1 X149.998 Y122.855 E2.46683
G1 X149.355 Y123.323 E2.49328
G1 X148.741 Y123.728 E2.51774
G1 X148.277 Y124.007 E2.53575
G1 X147.637 Y124.359 E2.56005
G1 X147.369 Y124.496 E2.57006
G1 X146.858 Y124.74 E2.58889
G1 X146.163 Y125.035 E2.614
G1 X145.866 Y125.15 E2.6246
G1 X145.141 Y125.403 E2.65013
G1 X144.581 Y125.572 E2.66959
G1 X144.184 Y125.679 E2.68327
G1 X143.222 Y125.889 E2.71602
G1 X142.449 Y126.019 E2.74209
G1 X141.594 Y126.126 E2.77075
G1 X140.855 Y126.175 E2.79538
G1 X140.098 Y126.195 E2.82057
G1 X137.848 Y126.195 E2.8954
G1 X135.313 Y126.266 E2.97975
G1 X132.765 Y126.409 E3.06463
G1 X130.239 Y126.624 E3.14895
G1 X127.744 Y126.907 E3.23246
G1 X125.142 Y127.276 E3.31987
G1 X123.909 Y127.479 E3.36143
G1 X123.218 Y127.569 E3.38461
G1 X122.34 Y127.643 E3.41392
G1 X121.772 Y127.673 E3.43284
G1 X120.903 Y127.682 E3.46174
G1 X120.152 Y127.649 E3.48674
G1 X119.349 Y127.582 E3.51354
G1 X118.855 Y127.526 E3.53008
G1 X117.995 Y127.391 E3.55903
G1 X117.136 Y127.209 E3.58824
G1 X116.511 Y127.055 E3.60965
G1 X115.333 Y126.688 E3.65068
G1 X114.848 Y126.504 E3.66794
G1 X114.054 Y126.172 E3.69656
G1 X113.408 Y125.871 E3.72027
G1 X112.603 Y125.452 E3.75045
G1 X111.893 Y125.035 E3.77784
G1 X111.477 Y124.768 E3.79428
G1 X111.089 Y124.507 E3.80983
G1 X110.537 Y124.105 E3.83254
G1 X109.954 Y123.647 E3.8572
G1 X109.63 Y123.377 E3.87123
G1 X108.957 Y122.763 E3.90153
G1 X108.585 Y122.392 E3.919
G1 X108.041 Y121.817 E3.94533
G1 X107.482 Y121.162 E3.97397
G1 X107.079 Y120.647 E3.99572
G1 X106.588 Y119.963 E4.02373
G1 X106.127 Y119.245 E4.0521
G1 X105.852 Y118.785 E4.06993
G1 X105.457 Y118.058 E4.09745
G1 X105.19 Y117.516 E4.11754
G1 X104.848 Y116.743 E4.14566
G1 X104.61 Y116.138 E4.16728
G1 X104.324 Y115.308 E4.19648
G1 X104.166 Y114.776 E4.21494
G1 X103.966 Y113.99 E4.24191
G1 X103.835 Y113.373 E4.26289
G1 X103.689 Y112.497 E4.29243
G1 X103.629 Y112.008 E4.30882
G1 X103.55 Y111.146 E4.33761
G1 X103.515 Y110.323 E4.36501
G1 X103.514 Y109.709 E4.38543
G1 X103.551 Y108.829 E4.41472
G1 X103.623 Y108.062 E4.44034
G1 X103.699 Y107.448 E4.46092
G1 X103.846 Y106.576 E4.49033
G1 X103.967 Y106.008 E4.50965
G1 X104.16 Y105.245 E4.53583
G1 X104.328 Y104.676 E4.55556
G1 X104.634 Y103.793 E4.58664
G1 X104.858 Y103.23 E4.60679
G1 X105.175 Y102.515 E4.63281
G1 X105.461 Y101.931 E4.65444
G1 X105.893 Y101.139 E4.68444
G1 X106.303 Y100.474 E4.71043
G1 X106.783 Y99.762 E4.73899
G1 X107.203 Y99.195 E4.76246
G1 X107.492 Y98.827 E4.77802
G1 X108.032 Y98.194 E4.80569
G0 F6000 X107.739 Y97.922
G1 F1200 X108.051 Y97.585 E4.82097
G1 X108.716 Y96.914 E4.85239
G1 X109.362 Y96.325 E4.88146
G1 X109.86 Y95.911 E4.903
G1 X110.533 Y95.395 E4.93121
G1 X111.048 Y95.032 E4.95217
G1 X111.802 Y94.548 E4.98197
G1 X112.536 Y94.131 E5.01004
G1 X113.245 Y93.764 E5.0366
G1 X113.954 Y93.436 E5.06258
G1 X114.596 Y93.171 E5.08568
G1 X115.326 Y92.902 E5.11156
G1 X115.79 Y92.747 E5.12783
G1 X116.623 Y92.507 E5.15666
G1 X117.428 Y92.318 E5.18416
G1 X117.807 Y92.242 E5.19702
G1 X118.547 Y92.116 E5.22199
G1 X119.288 Y92.023 E5.24682
G1 X119.749 Y91.98 E5.26222
G1 X120.532 Y91.931 E5.28832
G1 X120.905 Y91.919 E5.30073
G1 X121.812 Y91.929 E5.3309
G1 X122.382 Y91.959 E5.34988
G1 X122.847 Y91.994 E5.36539
G1 X123.448 Y92.053 E5.38548
G1 X124.12 Y92.142 E5.40802
G1 X125.779 Y92.416 E5.46395
G1 X128.261 Y92.753 E5.54726
G1 X130.818 Y93.028 E5.6328
G1 X133.315 Y93.226 E5.71611
G1 X135.846 Y93.352 E5.80039
G1 X138.376 Y93.409 E5.88456
G1 X140.064 Y93.407 E5.94071
G1 X140.558 Y93.414 E5.95714
G1 X141.216 Y93.445 E5.97905
G1 X141.632 Y93.478 E5.99293
G1 X142.58 Y93.597 E6.02471
G1 X143.383 Y93.735 E6.0518
G1 X144.261 Y93.925 E6.08168
G1 X145.021 Y94.139 E6.10794
G1 X145.339 Y94.241 E6.11905
G1 X146.016 Y94.479 E6.14292
G1 X146.79 Y94.794 E6.17071
G1 X147.48 Y95.113 E6.196
G1 X148.188 Y95.482 E6.22255
G1 X148.69 Y95.772 E6.24183
G1 X149.327 Y96.175 E6.2669
G1 X150.022 Y96.662 E6.29513
G1 X150.271 Y96.85 E6.30551
G1 X150.833 Y97.302 E6.32949
G1 X151.468 Y97.865 E6.35772
G1 X152.012 Y98.396 E6.38301
G1 X152.377 Y98.778 E6.40058
G1 X152.894 Y99.369 E6.42669
G1 X153.087 Y99.605 E6.43683
G1 X153.583 Y100.255 E6.46403
G1 X154.049 Y100.933 E6.49139
G1 X154.441 Y101.563 E6.51607
G1 X154.846 Y102.291 E6.54378
G1 X155.186 Y102.974 E6.56915
G1 X155.53 Y103.766 E6.59787
G1 X155.797 Y104.469 E6.62289
G1 X156.047 Y105.238 E6.64978
G1 X156.218 Y105.852 E6.67098
G1 X156.316 Y106.255 E6.68477
G1 X156.508 Y107.249 E6.71845
G1 X156.622 Y108.045 E6.74519
G1 X156.709 Y108.9 E6.77378
G1 X156.726 Y109.18 E6.78311
G1 X156.746 Y109.994 E6.81019
G1 X156.738 Y110.514 E6.82748
G1 X156.698 Y111.274 E6.8528
G1 X156.673 Y111.567 E6.86258
G1 X156.608 Y112.143 E6.88186
G1 X156.507 Y112.813 E6.90439
G1 X156.456 Y113.095 E6.91392
G1 X156.327 Y113.71 E6.93482
G1 X156.137 Y114.461 E6.96059
G1 X155.903 Y115.224 E6.98713
G1 X155.62 Y116.009 E7.01489
G1 X155.327 Y116.715 E7.04031
G1 X154.991 Y117.426 E7.06647
G1 X154.839 Y117.722 E7.07753
G1 X154.48 Y118.372 E7.10223
G1 X154.041 Y119.079 E7.12991
G1 X153.741 Y119.522 E7.14771
G1 X153.269 Y120.164 E7.17421
G1 X153.092 Y120.388 E7.1837
G1 X152.575 Y121 E7.21035
G1 X152.041 Y121.576 E7.23647
G1 X151.675 Y121.938 E7.2536
G1 X151.072 Y122.494 E7.28088
G1 X150.846 Y122.688 E7.29078
G1 X150.233 Y123.178 E7.31688
G1 X149.575 Y123.657 E7.34395
G1 X148.947 Y124.071 E7.36897
G1 X148.47 Y124.357 E7.38747
G1 X147.819 Y124.715 E7.41218
G1 X147.541 Y124.857 E7.42256
G1 X147.014 Y125.108 E7.44198
G1 X146.307 Y125.408 E7.46752
G1 X145.998 Y125.528 E7.47855
G1 X145.257 Y125.786 E7.50464
G1 X144.685 Y125.958 E7.52451
G1 X144.269 Y126.07 E7.53884
G1 X143.307 Y126.28 E7.57159
G1 X142.499 Y126.416 E7.59884
G1 X141.62 Y126.525 E7.6283
G1 X140.866 Y126.575 E7.65343
G1 X140.109 Y126.595 E7.67862
G1 X137.859 Y126.595 E7.75346
G1 X135.324 Y126.666 E7.8378
G1 X132.799 Y126.807 E7.92192
G1 X130.273 Y127.022 E8.00624
G1 X127.8 Y127.303 E8.08902
G1 X125.207 Y127.671 E8.17613
G1 X123.961 Y127.876 E8.21812
G1 X123.252 Y127.968 E8.2419
G1 X122.374 Y128.042 E8.27121
G1 X121.776 Y128.073 E8.29113
G1 X120.885 Y128.082 E8.32076
G1 X120.119 Y128.048 E8.34626
G1 X119.304 Y127.979 E8.37347
G1 X118.793 Y127.921 E8.39057
G1 X117.912 Y127.782 E8.42024
G1 X117.04 Y127.597 E8.44989
G1 X116.392 Y127.437 E8.47209
G1 X115.191 Y127.062 E8.51393
G1 X114.694 Y126.873 E8.53162
G1 X113.885 Y126.535 E8.56078
G1 X113.223 Y126.226 E8.58508
G1 X112.4 Y125.797 E8.61595
G1 X111.677 Y125.372 E8.64384
G1 X111.254 Y125.1 E8.66057
G1 X110.854 Y124.83 E8.67662
G1 X110.29 Y124.42 E8.69981
G1 X109.698 Y123.954 E8.72487
G1 X109.36 Y123.672 E8.73951
G1 X108.675 Y123.046 E8.77037
G1 X108.294 Y122.667 E8.78825
G1 X107.737 Y122.077 E8.81524
G1 X107.167 Y121.409 E8.84444
G1 X106.754 Y120.88 E8.86676
G1 X106.251 Y120.179 E8.89546
G1 X105.784 Y119.45 E8.92426
G1 X105.501 Y118.976 E8.94262
G1 X105.098 Y118.235 E8.97067
G1 X104.824 Y117.678 E8.99132
G1 X104.476 Y116.889 E9.02
G1 X104.232 Y116.268 E9.04219
G1 X103.941 Y115.422 E9.07195
G1 X103.778 Y114.875 E9.09093
G1 X103.578 Y114.089 E9.11791
G1 X103.44 Y113.439 E9.14001
G1 X103.292 Y112.546 E9.17011
G1 X103.231 Y112.045 E9.1869
G1 X103.15 Y111.163 E9.21636
G1 X103.115 Y110.324 E9.24429
G1 X103.114 Y109.692 E9.26531
G1 X103.151 Y108.812 E9.2946
G1 X103.226 Y108.013 E9.3213
G1 X103.305 Y107.382 E9.34245
G1 X103.455 Y106.493 E9.37243
G1 X103.579 Y105.91 E9.39226
G1 X103.776 Y105.132 E9.41895
G1 X103.95 Y104.545 E9.43931
G1 X104.262 Y103.645 E9.471
G1 X104.492 Y103.068 E9.49166
G1 X104.816 Y102.339 E9.51819
G1 X105.11 Y101.739 E9.54041
G1 X105.542 Y100.947 E9.57042
G1 X105.971 Y100.25 E9.59764
G1 X106.451 Y99.538 E9.6262
G1 X106.888 Y98.948 E9.65062
G1 X107.188 Y98.567 E9.66675
G1 X107.739 Y97.922 E9.69496
G0 F6000 X107.445 Y97.65
G1 F1200 X107.767 Y97.303 E9.71071
G1 X108.446 Y96.618 E9.74279
G1 X109.106 Y96.017 E9.77248
G1 X109.604 Y95.603 E9.79402
G1 X110.303 Y95.068 E9.82329
G1 X110.832 Y94.695 E9.84482
G1 X111.604 Y94.2 E9.87532
G1 X112.352 Y93.776 E9.90392
G1 X113.077 Y93.401 E9.93107
G1 X113.801 Y93.066 E9.9576
G1 X114.443 Y92.801 E9.9807
G1 X115.199 Y92.523 E10.00749
G1 X115.679 Y92.363 E10.02432
G1 X116.532 Y92.118 E10.05384
G1 X117.349 Y91.926 E10.08175
G1 X117.74 Y91.848 E10.09502
G1 X118.497 Y91.719 E10.12056
G1 X119.251 Y91.625 E10.14583
G1 X119.724 Y91.581 E10.16163
G1 X120.519 Y91.531 E10.18812
G1 X120.909 Y91.519 E10.2011
G1 X121.833 Y91.53 E10.23183
G1 X122.412 Y91.56 E10.25112
G1 X122.886 Y91.596 E10.26693
G1 X123.501 Y91.656 E10.28748
G1 X124.185 Y91.747 E10.31043
G1 X125.844 Y92.021 E10.36636
G1 X128.304 Y92.355 E10.44893
G1 X130.856 Y92.63 E10.5343
G1 X133.335 Y92.826 E10.61701
G1 X135.866 Y92.952 E10.70129
G1 X138.385 Y93.009 E10.7851
G1 X140.07 Y93.007 E10.84114
G1 X140.577 Y93.014 E10.85801
G1 X141.248 Y93.046 E10.88035
G1 X141.682 Y93.081 E10.89483
G1 X142.648 Y93.203 E10.92721
G1 X143.468 Y93.344 E10.95489
G1 X144.369 Y93.54 E10.98556
G1 X145.143 Y93.758 E11.0123
G1 X145.472 Y93.864 E11.0238
G1 X146.167 Y94.109 E11.04831
G1 X146.958 Y94.431 E11.07671
G1 X147.665 Y94.758 E11.10262
G1 X148.373 Y95.127 E11.12918
G1 X148.904 Y95.434 E11.14958
G1 X149.557 Y95.847 E11.17527
G1 X150.252 Y96.334 E11.2035
G1 X150.522 Y96.538 E11.21476
G1 X151.084 Y96.99 E11.23874
G1 X151.747 Y97.579 E11.26824
G1 X152.301 Y98.12 E11.29399
G1 X152.678 Y98.515 E11.31216
G1 X153.204 Y99.116 E11.33872
G1 X153.405 Y99.362 E11.34929
G1 X153.913 Y100.028 E11.37715
G1 X154.389 Y100.722 E11.40514
G1 X154.791 Y101.369 E11.43047
G1 X155.204 Y102.113 E11.45877
G1 X155.553 Y102.815 E11.48485
G1 X155.904 Y103.624 E11.51418
G1 X156.177 Y104.345 E11.53982
G1 X156.432 Y105.131 E11.5673
G1 X156.607 Y105.757 E11.58892
G1 X156.709 Y106.179 E11.60336
G1 X156.904 Y107.192 E11.63767
G1 X157.02 Y108.005 E11.66499
G1 X157.108 Y108.876 E11.69411
G1 X157.126 Y109.17 E11.7039
G1 X157.146 Y110 E11.73152
G1 X157.137 Y110.535 E11.74931
G1 X157.097 Y111.308 E11.77506
G1 X157.072 Y111.601 E11.78484
G1 X157.004 Y112.203 E11.80499
G1 X156.901 Y112.884 E11.8279
G1 X156.715 Y113.808 E11.85924
G1 X156.525 Y114.559 E11.88501
G1 X156.279 Y115.36 E11.91288
G1 X155.989 Y116.162 E11.94124
G1 X155.689 Y116.886 E11.96731
G1 X155.347 Y117.609 E11.99391
G1 X155.189 Y117.915 E12.00537
G1 X154.82 Y118.583 E12.03075
G1 X154.372 Y119.303 E12.05895
G1 X154.063 Y119.759 E12.07727
G1 X153.583 Y120.412 E12.10423
G1 X153.398 Y120.646 E12.11415
G1 X152.868 Y121.272 E12.14143
G1 X152.322 Y121.86 E12.16812
G1 X151.946 Y122.232 E12.18571
G1 X151.333 Y122.798 E12.21346
G1 X151.107 Y122.992 E12.22337
G1 X150.468 Y123.501 E12.25054
G1 X149.795 Y123.991 E12.27823
G1 X149.153 Y124.414 E12.3038
G1 X148.663 Y124.707 E12.32279
G1 X148.001 Y125.071 E12.34792
G1 X147.713 Y125.218 E12.35867
G1 X147.17 Y125.476 E12.37867
G1 X146.452 Y125.781 E12.40461
G1 X146.13 Y125.906 E12.4161
G1 X145.372 Y126.169 E12.44279
G1 X144.789 Y126.344 E12.46303
G1 X144.354 Y126.461 E12.47801
G1 X143.392 Y126.671 E12.51076
G1 X142.548 Y126.813 E12.53923
G1 X141.646 Y126.924 E12.56946
G1 X140.877 Y126.975 E12.59509
G1 X140.12 Y126.995 E12.62028
G1 X137.87 Y126.995 E12.69511
G1 X135.335 Y127.066 E12.77946
G1 X132.833 Y127.205 E12.8628
G1 X130.307 Y127.42 E12.94712
G1 X127.856 Y127.699 E13.02917
G1 X125.272 Y128.066 E13.11598
G1 X124.012 Y128.273 E13.15845
G1 X123.286 Y128.367 E13.1828
G1 X122.408 Y128.441 E13.2121
G1 X121.78 Y128.473 E13.23302
G1 X120.867 Y128.482 E13.26338
G1 X120.085 Y128.447 E13.28942
G1 X119.27 Y128.378 E13.31662
G1 X118.731 Y128.316 E13.33467
G1 X117.829 Y128.173 E13.36504
G1 X116.944 Y127.985 E13.39514
G1 X116.273 Y127.819 E13.41813
G1 X115.049 Y127.436 E13.46078
G1 X114.54 Y127.242 E13.4789
G1 X113.716 Y126.897 E13.50861
G1 X113.038 Y126.581 E13.53349
G1 X112.197 Y126.142 E13.56504
G1 X111.474 Y125.717 E13.59294
G1 X111.03 Y125.432 E13.61049
G1 X110.619 Y125.154 E13.62699
G1 X110.055 Y124.744 E13.65018
G1 X109.442 Y124.261 E13.67614
G1 X109.09 Y123.967 E13.69139
G1 X108.393 Y123.33 E13.7228
G1 X108.003 Y122.942 E13.7411
G1 X107.433 Y122.337 E13.76874
G1 X106.852 Y121.655 E13.79854
G1 X106.429 Y121.113 E13.82141
G1 X105.914 Y120.395 E13.8508
G1 X105.441 Y119.655 E13.88001
G1 X105.15 Y119.167 E13.8989
G1 X104.739 Y118.412 E13.9275
G1 X104.458 Y117.839 E13.94872
G1 X104.104 Y117.035 E13.97794
G1 X103.854 Y116.398 E14.0007
G1 X103.558 Y115.536 E14.03101
G1 X103.39 Y114.974 E14.05052
G1 X103.19 Y114.188 E14.0775
G1 X103.045 Y113.504 E14.10075
G1 X102.895 Y112.594 E14.13143
G1 X102.833 Y112.082 E14.14858
G1 X102.75 Y111.18 E14.17871
G1 X102.715 Y110.325 E14.20717
G1 X102.714 Y109.675 E14.22879
G1 X102.751 Y108.795 E14.25809
G1 X102.829 Y107.963 E14.28588
G1 X102.911 Y107.315 E14.3076
