;FLAVOR:Marlin
;TIME:1215
;Filament used: 0.833934m
;Layer height: 0.15
;MINX:159.103
;MINY:66.866
;MINZ:0.3
;MAXX:189.702
;MAXY:133.136
;MAXZ:31.05
;Generated with Cura_SteamEngine 5.3.0
M140 S60
M105
M190 S60
M104 S200
M105
M109 S200
M82 ;absolute extrusion mode
G21 ;metric values
 G90 ;absolute positioning
 M82 ;set extruder to absolute mode
 M107 ;start with the fan off
 G28 X0 Y0 ;move X/Y to min endstops
 G28 Z0 ;move Z to min endstops
 G1 Z15.0 F120 ;move the platform down 15mm
 G92 E0 ;zero the extruded length
 G1 F200 E6 ;extrude 6 mm of feed stock
 G92 E0 ;zero the extruded length again
 G1 F120 
 ;Put printing message on LCD screen
 M117 Printing...
G92 E0
G92 E0
G1 F1500 E-6.5
;LAYER_COUNT:206
;LAYER:0
M107
G0 F3600 X161.69 Y74.331 Z0.3
;TYPE:SKIRT
G1 F1500 E0
G1 F1800 X162.286 Y73.296 E0.05959
G1 X163.28 Y71.923 E0.14415
G1 X164.415 Y70.688 E0.22783
G1 X165.727 Y69.58 E0.31351
G1 X167.362 Y68.54 E0.41018
G1 X168.546 Y67.962 E0.47592
G1 X169.887 Y67.468 E0.54721
G1 X171.338 Y67.114 E0.62173
G1 X173.365 Y66.87 E0.72359
G1 X174.486 Y66.866 E0.77951
G1 X176.712 Y67.116 E0.89127
G1 X179.135 Y67.853 E1.01762
G1 X180.144 Y68.309 E1.07286
G1 X182.388 Y69.717 E1.20503
G1 X183.095 Y70.305 E1.2509
G1 X184.191 Y71.405 E1.32837
G1 X185.557 Y73.167 E1.4396
G1 X186.213 Y74.298 E1.50483
G1 X186.997 Y76.155 E1.6054
G1 X187.45 Y77.721 E1.68673
G1 X187.565 Y78.31 E1.71667
G1 X187.754 Y80.388 E1.82077
G1 X187.753 Y80.988 E1.8507
G1 X187.583 Y82.851 E1.94403
G1 X187.403 Y83.771 E1.9908
G1 X186.915 Y85.393 E2.07531
G1 X186.252 Y86.929 E2.15877
G1 X185.438 Y88.32 E2.23918
G1 X184.759 Y89.246 E2.29647
G1 X183.584 Y90.55 E2.38404
G1 X183.1 Y90.998 E2.41694
G1 X181.595 Y92.141 E2.51123
G1 X180.488 Y92.805 E2.57563
G1 X178.992 Y93.502 E2.65797
G1 X177.538 Y93.975 E2.73425
G1 X176.081 Y94.284 E2.80856
G1 X174.893 Y94.416 E2.86819
G1 X173.154 Y94.425 E2.95495
G1 X171.052 Y94.142 E3.06077
G1 X169.534 Y93.722 E3.13935
G1 X168.598 Y93.364 E3.18934
G1 X166.885 Y92.504 E3.28497
G1 X166.378 Y92.186 E3.31483
G1 X164.839 Y91.009 E3.41149
G1 X164.244 Y90.454 E3.45208
G1 X163.204 Y89.295 E3.52977
G1 X162.388 Y88.166 E3.59927
G1 X161.651 Y86.886 E3.67296
G1 X160.953 Y85.236 E3.76234
G1 X160.476 Y83.603 E3.84722
G1 X160.357 Y82.994 E3.87817
G1 X160.168 Y80.918 E3.98217
G1 X160.169 Y80.318 E4.01211
G1 X160.324 Y78.625 E4.09692
G1 X160.685 Y76.898 E4.18495
G1 X160.964 Y76.018 E4.231
G1 X161.69 Y74.331 E4.32263
G0 F3600 X162.037 Y74.531
G1 F1800 X162.633 Y73.496 E4.38222
G1 X163.575 Y72.194 E4.46239
G1 X164.71 Y70.959 E4.54608
G1 X165.942 Y69.918 E4.62654
G1 X167.577 Y68.878 E4.72322
G1 X168.721 Y68.322 E4.78668
G1 X169.982 Y67.857 E4.85373
G1 X171.433 Y67.503 E4.92824
G1 X173.367 Y67.27 E5.02543
G1 X174.441 Y67.264 E5.07901
G1 X176.633 Y67.51 E5.18906
G1 X178.97 Y68.218 E5.31088
G1 X179.979 Y68.674 E5.36613
G1 X182.132 Y70.025 E5.49293
G1 X182.839 Y70.613 E5.53881
G1 X183.907 Y71.687 E5.61438
G1 X185.211 Y73.369 E5.72056
G1 X185.844 Y74.454 E5.78323
G1 X186.628 Y76.311 E5.88379
G1 X187.057 Y77.798 E5.961
G1 X187.172 Y78.387 E5.99094
G1 X187.354 Y80.387 E6.09114
G1 X187.353 Y80.987 E6.12107
G1 X187.19 Y82.774 E6.21059
G1 X187.01 Y83.694 E6.25736
G1 X186.548 Y85.234 E6.33758
G1 X185.885 Y86.77 E6.42104
G1 X185.115 Y88.083 E6.49698
G1 X184.436 Y89.009 E6.55427
G1 X183.312 Y90.256 E6.63803
G1 X182.828 Y90.704 E6.67093
G1 X181.389 Y91.798 E6.76111
G1 X180.319 Y92.442 E6.82342
G1 X178.823 Y93.139 E6.90576
G1 X177.455 Y93.584 E6.97753
G1 X176.037 Y93.886 E7.04986
G1 X174.849 Y94.018 E7.10949
G1 X173.152 Y94.025 E7.19416
G1 X171.158 Y93.756 E7.29454
G1 X169.677 Y93.348 E7.37118
G1 X168.741 Y92.99 E7.42117
G1 X167.098 Y92.165 E7.5129
G1 X166.591 Y91.847 E7.54276
G1 X165.112 Y90.716 E7.63565
G1 X164.517 Y90.161 E7.67624
G1 X163.502 Y89.028 E7.75213
G1 X162.735 Y87.966 E7.81749
G1 X161.998 Y86.686 E7.89118
G1 X161.337 Y85.124 E7.97579
G1 X160.869 Y83.526 E8.05887
G1 X160.75 Y82.917 E8.08983
G1 X160.568 Y80.919 E8.18992
G1 X160.569 Y80.319 E8.21985
G1 X160.722 Y78.662 E8.30287
G1 X161.067 Y77.018 E8.38668
G1 X161.332 Y76.176 E8.43072
G1 X162.037 Y74.531 E8.52001
G0 F3600 X162.384 Y74.731
G1 F1800 X162.98 Y73.696 E8.57959
G1 X163.87 Y72.465 E8.65538
G1 X165.005 Y71.23 E8.73906
G1 X166.2 Y70.224 E8.81699
G1 X167.752 Y69.238 E8.90873
G1 X168.896 Y68.682 E8.97218
G1 X170.077 Y68.246 E9.03499
G1 X171.528 Y67.892 E9.1095
G1 X173.37 Y67.67 E9.20207
G1 X174.396 Y67.662 E9.25326
G1 X176.554 Y67.904 E9.36159
G1 X178.805 Y68.583 E9.4789
G1 X179.814 Y69.039 E9.53414
G1 X181.876 Y70.333 E9.65559
G1 X182.583 Y70.921 E9.70147
G1 X183.623 Y71.969 E9.77513
G1 X184.865 Y73.571 E9.87626
G1 X185.498 Y74.656 E9.93893
G1 X186.244 Y76.422 E10.03457
G1 X186.664 Y77.875 E10.11003
G1 X186.779 Y78.464 E10.13997
G1 X186.954 Y80.386 E10.23625
G1 X186.953 Y80.986 E10.26619
G1 X186.797 Y82.697 E10.35191
G1 X186.617 Y83.617 E10.39867
G1 X186.165 Y85.119 E10.47693
G1 X185.54 Y86.568 E10.55566
G1 X184.792 Y87.846 E10.62954
G1 X184.113 Y88.772 E10.68682
G1 X183.04 Y89.962 E10.76676
G1 X182.556 Y90.41 E10.79967
G1 X181.182 Y91.456 E10.88582
G1 X180.15 Y92.079 E10.94596
G1 X178.654 Y92.776 E11.0283
G1 X177.371 Y93.193 E11.0956
G1 X175.993 Y93.488 E11.16591
G1 X174.805 Y93.62 E11.22554
G1 X173.151 Y93.625 E11.30806
G1 X171.264 Y93.37 E11.40306
G1 X169.82 Y92.974 E11.47776
G1 X168.884 Y92.616 E11.52776
G1 X167.311 Y91.826 E11.61558
G1 X166.804 Y91.508 E11.64544
G1 X165.385 Y90.423 E11.73455
G1 X164.79 Y89.868 E11.77515
G1 X163.8 Y88.761 E11.84924
G1 X163.082 Y87.766 E11.91046
G1 X162.345 Y86.486 E11.98414
G1 X161.706 Y84.969 E12.06627
G1 X161.262 Y83.449 E12.14527
G1 X161.143 Y82.84 E12.17623
G1 X160.968 Y80.92 E12.27241
G1 X160.969 Y80.32 E12.30235
G1 X161.12 Y78.699 E12.38357
G1 X161.449 Y77.138 E12.46316
G1 X161.714 Y76.296 E12.5072
G1 X162.384 Y74.731 E12.59213
G0 F3600 X162.731 Y74.931
G1 F1800 X163.327 Y73.896 E12.65172
G1 X164.165 Y72.736 E12.72311
G1 X165.3 Y71.501 E12.80679
G1 X166.457 Y70.531 E12.88212
G1 X167.927 Y69.598 E12.96898
G1 X169.071 Y69.042 E13.03244
G1 X170.172 Y68.635 E13.091
G1 X171.623 Y68.281 E13.16552
G1 X173.374 Y68.07 E13.25351
G1 X174.351 Y68.06 E13.30225
G1 X176.477 Y68.298 E13.40898
G1 X178.64 Y68.948 E13.52166
G1 X179.649 Y69.404 E13.5769
G1 X181.62 Y70.641 E13.693
G1 X182.327 Y71.229 E13.73887
G1 X183.307 Y72.215 E13.80823
G1 X184.519 Y73.773 E13.90671
G1 X185.152 Y74.858 E13.96938
G1 X185.86 Y76.533 E14.0601
G1 X186.271 Y77.952 E14.13381
G1 X186.386 Y78.541 E14.16375
G1 X186.554 Y80.385 E14.25613
G1 X186.553 Y80.985 E14.28606
G1 X186.404 Y82.62 E14.36797
G1 X186.224 Y83.54 E14.41474
G1 X185.797 Y84.961 E14.48876
G1 X185.194 Y86.366 E14.56504
G1 X184.469 Y87.609 E14.63683
G1 X183.79 Y88.535 E14.69412
G1 X182.768 Y89.668 E14.77025
G1 X182.284 Y90.116 E14.80315
G1 X180.94 Y91.137 E14.88735
G1 X179.981 Y91.716 E14.94324
G1 X178.485 Y92.413 E15.02558
G1 X177.287 Y92.802 E15.08842
G1 X175.949 Y93.09 E15.1567
G1 X174.761 Y93.222 E15.21634
G1 X173.15 Y93.225 E15.29671
G1 X171.369 Y92.984 E15.38638
G1 X169.963 Y92.6 E15.45909
G1 X169.027 Y92.242 E15.50909
G1 X167.524 Y91.487 E15.593
G1 X167.017 Y91.169 E15.62286
G1 X165.658 Y90.13 E15.70821
G1 X165.063 Y89.575 E15.7488
G1 X164.124 Y88.526 E15.81904
G1 X163.429 Y87.566 E15.87817
G1 X162.692 Y86.286 E15.95186
G1 X162.075 Y84.814 E16.03148
G1 X161.655 Y83.372 E16.10642
G1 X161.536 Y82.763 E16.13737
G1 X161.368 Y80.921 E16.22965
G1 X161.369 Y80.321 E16.25959
G1 X161.512 Y78.781 E16.33675
G1 X161.831 Y77.258 E16.41438
G1 X162.096 Y76.416 E16.45842
G1 X162.731 Y74.931 E16.53899
G0 F3600 X163.078 Y75.131
G1 F1800 X163.674 Y74.096 E16.59858
G1 X164.46 Y73.007 E16.66558
G1 X165.595 Y71.772 E16.74927
G1 X166.672 Y70.868 E16.81942
G1 X168.102 Y69.958 E16.90398
G1 X169.246 Y69.402 E16.96744
G1 X170.267 Y69.024 E17.02176
G1 X171.718 Y68.67 E17.09627
G1 X173.379 Y68.47 E17.17974
G1 X174.307 Y68.458 E17.22604
G1 X176.399 Y68.692 E17.33106
G1 X178.475 Y69.313 E17.43917
G1 X179.484 Y69.769 E17.49441
G1 X181.364 Y70.949 E17.60515
G1 X182.071 Y71.537 E17.65102
G1 X182.992 Y72.461 E17.71611
G1 X184.173 Y73.975 E17.81191
G1 X184.806 Y75.06 E17.87458
G1 X185.476 Y76.645 E17.96043
G1 X185.878 Y78.029 E18.03233
G1 X185.993 Y78.618 E18.06227
G1 X186.154 Y80.384 E18.15074
G1 X186.153 Y80.984 E18.18067
G1 X186.011 Y82.543 E18.25878
G1 X185.831 Y83.463 E18.30554
G1 X185.429 Y84.803 E18.37534
G1 X184.826 Y86.208 E18.45162
G1 X184.146 Y87.372 E18.51888
G1 X183.467 Y88.298 E18.57616
G1 X182.496 Y89.374 E18.64847
G1 X182.012 Y89.822 E18.68137
G1 X180.733 Y90.795 E18.76155
G1 X179.812 Y91.353 E18.81527
G1 X178.316 Y92.05 E18.89761
G1 X177.164 Y92.421 E18.95799
G1 X175.905 Y92.692 E19.02224
G1 X174.717 Y92.824 E19.08188
G1 X173.15 Y92.825 E19.16006
G1 X171.474 Y92.598 E19.24444
G1 X170.106 Y92.226 E19.31516
G1 X169.17 Y91.868 E19.36516
G1 X167.737 Y91.148 E19.44517
G1 X167.23 Y90.83 E19.47503
G1 X165.931 Y89.837 E19.5566
G1 X165.336 Y89.282 E19.5972
G1 X164.422 Y88.259 E19.66564
G1 X163.776 Y87.366 E19.72062
G1 X163.039 Y86.086 E19.79431
G1 X162.444 Y84.66 E19.8714
G1 X162.048 Y83.295 E19.94231
G1 X161.929 Y82.686 E19.97327
G1 X161.768 Y80.922 E20.06164
G1 X161.769 Y80.322 E20.09157
G1 X161.91 Y78.818 E20.16694
G1 X162.213 Y77.378 E20.24035
G1 X162.478 Y76.536 E20.28439
G1 X163.078 Y75.131 E20.36061
G0 F3600 X163.425 Y75.331
G1 F1800 X164.021 Y74.296 E20.4202
G1 X164.755 Y73.278 E20.48281
G1 X165.89 Y72.043 E20.56649
G1 X166.887 Y71.205 E20.63147
G1 X168.277 Y70.318 E20.71373
G1 X169.386 Y69.777 E20.77529
G1 X170.362 Y69.413 E20.82726
G1 X171.813 Y69.059 E20.90178
G1 X173.385 Y68.87 E20.98077
G1 X174.263 Y68.856 E21.02458
G1 X176.323 Y69.086 E21.12799
G1 X178.31 Y69.678 E21.23143
G1 X179.319 Y70.134 E21.28667
G1 X181.108 Y71.257 E21.39205
G1 X181.815 Y71.845 E21.43793
G1 X182.708 Y72.743 E21.50111
G1 X183.827 Y74.177 E21.59186
G1 X184.46 Y75.262 E21.65453
G1 X185.092 Y76.757 E21.7355
G1 X185.485 Y78.106 E21.8056
G1 X185.6 Y78.695 E21.83554
G1 X185.754 Y80.383 E21.92011
G1 X185.753 Y80.983 E21.95004
G1 X185.618 Y82.466 E22.02433
G1 X185.438 Y83.386 E22.0711
G1 X185.061 Y84.645 E22.13667
G1 X184.458 Y86.05 E22.21295
G1 X183.823 Y87.135 E22.27567
G1 X183.144 Y88.061 E22.33296
G1 X182.224 Y89.08 E22.40145
G1 X181.74 Y89.528 E22.43435
G1 X180.525 Y90.453 E22.51054
G1 X179.643 Y90.99 E22.56205
G1 X178.147 Y91.687 E22.64439
G1 X177.042 Y92.04 E22.70227
G1 X175.861 Y92.294 E22.76253
G1 X174.673 Y92.426 E22.82217
G1 X173.15 Y92.425 E22.89815
G1 X171.579 Y92.212 E22.97725
G1 X170.249 Y91.852 E23.04599
G1 X169.313 Y91.494 E23.09598
G1 X167.95 Y90.809 E23.17209
G1 X167.443 Y90.491 E23.20195
G1 X166.204 Y89.544 E23.27975
G1 X165.609 Y88.989 E23.32034
G1 X164.721 Y87.993 E23.38692
G1 X164.123 Y87.166 E23.43783
G1 X163.386 Y85.886 E23.51152
G1 X162.828 Y84.548 E23.58385
G1 X162.441 Y83.218 E23.65295
G1 X162.322 Y82.609 E23.68391
G1 X162.168 Y80.923 E23.76837
G1 X162.169 Y80.323 E23.79831
G1 X162.302 Y78.9 E23.86961
G1 X162.595 Y77.498 E23.94107
G1 X162.86 Y76.656 E23.98511
G1 X163.425 Y75.331 E24.05697
G0 F3600 X163.772 Y75.531
G1 F1800 X164.368 Y74.496 E24.11656
G1 X165.05 Y73.549 E24.17478
G1 X166.185 Y72.314 E24.25846
G1 X167.144 Y71.512 E24.32083
G1 X168.452 Y70.678 E24.39823
G1 X169.561 Y70.137 E24.45979
G1 X170.457 Y69.802 E24.50751
G1 X171.908 Y69.448 E24.58202
G1 X173.393 Y69.27 E24.65664
G1 X174.219 Y69.254 E24.69786
G1 X176.248 Y69.48 E24.79971
G1 X178.145 Y70.043 E24.89843
G1 X179.154 Y70.499 E24.95367
G1 X180.852 Y71.565 E25.0537
G1 X181.559 Y72.153 E25.09958
G1 X182.424 Y73.025 E25.16085
G1 X183.481 Y74.379 E25.24655
G1 X184.114 Y75.464 E25.30922
G1 X184.708 Y76.869 E25.38532
G1 X185.092 Y78.183 E25.45362
G1 X185.207 Y78.772 E25.48356
G1 X185.354 Y80.382 E25.56422
G1 X185.353 Y80.982 E25.59415
G1 X185.225 Y82.389 E25.66464
G1 X185.045 Y83.309 E25.71141
G1 X184.693 Y84.487 E25.77275
G1 X184.09 Y85.892 E25.84902
G1 X183.5 Y86.898 E25.90721
G1 X182.821 Y87.824 E25.9645
G1 X181.952 Y88.786 E26.02917
G1 X181.468 Y89.234 E26.06208
G1 X180.283 Y90.134 E26.13631
G1 X179.474 Y90.627 E26.18358
G1 X177.978 Y91.324 E26.26592
G1 X176.957 Y91.649 E26.31937
G1 X175.817 Y91.896 E26.37757
G1 X174.629 Y92.028 E26.4372
G1 X173.151 Y92.025 E26.51094
G1 X171.683 Y91.826 E26.58485
G1 X170.392 Y91.478 E26.65156
G1 X169.456 Y91.12 E26.70155
G1 X168.163 Y90.47 E26.77375
G1 X167.656 Y90.152 E26.80361
G1 X166.477 Y89.251 E26.87764
G1 X165.882 Y88.696 E26.91824
G1 X165.045 Y87.758 E26.98095
G1 X164.47 Y86.966 E27.02978
G1 X163.733 Y85.686 E27.10347
G1 X163.212 Y84.436 E27.17103
G1 X162.834 Y83.141 E27.23834
G1 X162.715 Y82.532 E27.2693
G1 X162.568 Y80.924 E27.34985
G1 X162.569 Y80.324 E27.37979
G1 X162.7 Y78.938 E27.44924
G1 X162.977 Y77.618 E27.51653
G1 X163.242 Y76.776 E27.56057
G1 X163.772 Y75.531 E27.62808
G0 F3600 X164.119 Y75.731
G1 F1800 X164.715 Y74.696 E27.68767
G1 X165.345 Y73.82 E27.7415
G1 X166.48 Y72.585 E27.82518
G1 X167.4 Y71.82 E27.88487
G1 X168.627 Y71.038 E27.95747
G1 X169.736 Y70.497 E28.01903
G1 X170.552 Y70.191 E28.0625
G1 X172.003 Y69.837 E28.13702
G1 X173.402 Y69.67 E28.20731
G1 X174.175 Y69.652 E28.24589
G1 X176.169 Y69.874 E28.34598
G1 X177.98 Y70.408 E28.44018
G1 X178.989 Y70.864 E28.49542
G1 X180.596 Y71.873 E28.59009
G1 X181.303 Y72.461 E28.63596
G1 X182.109 Y73.272 E28.69301
G1 X183.135 Y74.581 E28.77598
G1 X183.768 Y75.666 E28.83865
G1 X184.339 Y77.024 E28.91215
G1 X184.699 Y78.26 E28.97638
G1 X184.814 Y78.849 E29.00632
G1 X184.954 Y80.381 E29.08307
G1 X184.953 Y80.981 E29.113
G1 X184.832 Y82.312 E29.17968
G1 X184.652 Y83.232 E29.22645
G1 X184.325 Y84.329 E29.28356
G1 X183.722 Y85.734 E29.35984
G1 X183.177 Y86.661 E29.41349
G1 X182.498 Y87.587 E29.47077
G1 X181.68 Y88.492 E29.53163
G1 X181.196 Y88.94 E29.56454
G1 X180.075 Y89.792 E29.63478
G1 X179.266 Y90.285 E29.68205
G1 X177.856 Y90.943 E29.75968
G1 X176.872 Y91.258 E29.81122
G1 X175.773 Y91.498 E29.86734
G1 X174.585 Y91.63 E29.92698
G1 X173.152 Y91.625 E29.99847
G1 X171.787 Y91.44 E30.06719
G1 X170.535 Y91.104 E30.13187
G1 X169.599 Y90.746 E30.18186
G1 X168.376 Y90.131 E30.25016
G1 X167.869 Y89.813 E30.28002
G1 X166.75 Y88.958 E30.35028
G1 X166.155 Y88.403 E30.39087
G1 X165.368 Y87.522 E30.44981
G1 X164.817 Y86.766 E30.49648
G1 X164.08 Y85.486 E30.57017
G1 X163.596 Y84.324 E30.63297
G1 X163.227 Y83.064 E30.69847
G1 X163.108 Y82.455 E30.72943
G1 X162.968 Y80.925 E30.80608
G1 X162.969 Y80.325 E30.83601
G1 X163.092 Y79.02 E30.90141
G1 X163.359 Y77.738 E30.96674
G1 X163.624 Y76.896 E31.01078
G1 X164.119 Y75.731 E31.07393
G0 F3600 X164.466 Y75.931
G1 F1800 X165.062 Y74.896 E31.13351
G1 X165.64 Y74.09 E31.183
G1 X166.736 Y72.893 E31.26397
G1 X167.656 Y72.128 E31.32366
G1 X168.803 Y71.397 E31.39152
G1 X169.878 Y70.871 E31.45123
G1 X170.647 Y70.58 E31.49225
G1 X172.098 Y70.226 E31.56676
G1 X173.411 Y70.07 E31.63273
G1 X174.184 Y70.052 E31.6713
G1 X176.087 Y70.267 E31.76685
G1 X177.815 Y70.773 E31.85668
G1 X178.824 Y71.229 E31.91192
G1 X180.34 Y72.181 E32.00123
G1 X181.047 Y72.769 E32.04711
G1 X181.795 Y73.519 E32.09995
G1 X182.789 Y74.783 E32.18018
G1 X183.422 Y75.868 E32.24285
G1 X183.97 Y77.178 E32.31369
G1 X184.306 Y78.337 E32.37389
G1 X184.421 Y78.926 E32.40383
G1 X184.554 Y80.38 E32.47668
G1 X184.553 Y80.98 E32.50661
G1 X184.439 Y82.235 E32.56948
G1 X184.259 Y83.155 E32.61625
G1 X183.942 Y84.214 E32.6714
G1 X183.355 Y85.576 E32.74539
G1 X182.854 Y86.424 E32.79453
G1 X182.175 Y87.35 E32.85182
G1 X181.408 Y88.198 E32.90887
G1 X180.924 Y88.646 E32.94177
G1 X179.867 Y89.45 E33.00802
G1 X179.058 Y89.943 E33.05529
G1 X177.733 Y90.562 E33.12825
G1 X176.786 Y90.867 E33.17789
G1 X175.729 Y91.1 E33.23189
G1 X174.541 Y91.232 E33.29152
G1 X173.205 Y91.228 E33.35818
G1 X171.89 Y91.053 E33.42436
G1 X170.678 Y90.73 E33.48694
G1 X169.742 Y90.372 E33.53693
G1 X168.589 Y89.792 E33.60132
G1 X168.082 Y89.474 E33.63118
G1 X167.023 Y88.665 E33.69767
G1 X166.428 Y88.11 E33.73826
G1 X165.667 Y87.256 E33.79533
G1 X165.164 Y86.566 E33.83793
G1 X164.427 Y85.286 E33.91162
G1 X163.966 Y84.171 E33.97181
G1 X163.62 Y82.987 E34.03335
G1 X163.501 Y82.378 E34.06431
G1 X163.368 Y80.926 E34.13706
