;FLAVOR:Marlin
;TIME:6289
;Filament used: 11.1264m
;Layer height: 0.4
;MINX:8.8
;MINY:43.755
;MINZ:0.3
;MAXX:191.2
;MAXY:156.245
;MAXZ:3.9
;TARGET_MACHINE.NAME:Wanhao Duplicator i3
;Generated with Cura_SteamEngine 5.6.0
M140 S60
M105
M190 S60
M104 S200
M105
M109 S200
M82 ;absolute extrusion mode
G21 ;metric values
 G90 ;absolute positioning
 M82 ;set extruder to absolute mode
 M107 ;start with the fan off
 G28 X0 Y0 ;move X/Y to min endstops
 G28 Z0 ;move Z to min endstops
 G1 Z15.0 F120 ;move the platform down 15mm
 G92 E0 ;zero the extruded length
 G1 F200 E6 ;extrude 6 mm of feed stock
 G92 E0 ;zero the extruded length again
 G1 F120 
 ;Put printing message on LCD screen
 M117 Printing...
G92 E0
G92 E0
G1 F1500 E-6.5
;LAYER_COUNT:10
;LAYER:0
M107
G0 F3600 X14.092 Y46.989 Z0.3
;TYPE:SKIRT
G1 F1500 E0
G1 F1800 X14.586 Y46.882 E0.02522
G1 X15.24 Y46.846 E0.05789
G1 X152.327 Y46.845 E6.89719
G1 X155.124 Y46.805 E7.03675
G1 X157.841 Y46.69 E7.17242
G1 X160.587 Y46.495 E7.30977
G1 X163.293 Y46.227 E7.44543
G1 X166.016 Y45.879 E7.58239
G1 X168.717 Y45.454 E7.7188
G1 X171.425 Y44.951 E7.85621
G1 X174.057 Y44.385 E7.99052
G1 X175.605 Y44.005 E8.07005
G1 X176.302 Y43.845 E8.10572
G1 X176.998 Y43.756 E8.14073
G1 X187.339 Y43.755 E8.65665
G1 X188.037 Y43.765 E8.69147
G1 X188.54 Y43.812 E8.71668
G1 X189.03 Y43.938 E8.74192
G1 X189.494 Y44.14 E8.76717
G1 X189.92 Y44.412 E8.79238
G1 X190.298 Y44.747 E8.81758
G1 X190.618 Y45.138 E8.84279
G1 X190.873 Y45.575 E8.86803
G1 X191.056 Y46.046 E8.89324
G1 X191.163 Y46.54 E8.91846
G1 X191.199 Y47.195 E8.95118
G1 X191.2 Y59.388 E9.5595
G1 X191.189 Y60.095 E9.59477
G1 X191.106 Y60.769 E9.62865
G1 X190.371 Y63.933 E9.79071
G1 X189.834 Y66.611 E9.92697
G1 X189.372 Y69.304 E10.06329
G1 X188.984 Y72.025 E10.20042
G1 X188.677 Y74.727 E10.33609
G1 X188.444 Y77.444 E10.47214
G1 X188.289 Y80.185 E10.6091
G1 X188.21 Y82.952 E10.7472
G1 X188.2 Y84.34 E10.81645
G1 X188.2 Y94.364 E11.31655
G1 X188.189 Y95.183 E11.35742
G1 X187.983 Y97.673 E11.48207
G1 X187.828 Y100.409 E11.61879
G1 X187.75 Y103.17 E11.75659
G1 X187.75 Y105.885 E11.89204
G1 X187.827 Y108.622 E12.02864
G1 X187.984 Y111.395 E12.16721
G1 X188.199 Y114.082 E12.30169
G1 X188.2 Y149.353 E14.06137
G1 X188.19 Y150.08 E14.09765
G1 X188.143 Y150.583 E14.12285
G1 X188.017 Y151.073 E14.14809
G1 X187.816 Y151.537 E14.17332
G1 X187.544 Y151.963 E14.19853
G1 X187.209 Y152.342 E14.22377
G1 X186.818 Y152.662 E14.24898
G1 X186.382 Y152.917 E14.27418
G1 X185.911 Y153.101 E14.29941
G1 X185.416 Y153.207 E14.32466
G1 X184.972 Y153.244 E14.34689
G1 X49.339 Y153.245 E21.11365
G1 X46.542 Y153.285 E21.2532
G1 X43.825 Y153.4 E21.38888
G1 X41.079 Y153.595 E21.52622
G1 X38.373 Y153.863 E21.66188
G1 X35.65 Y154.211 E21.79884
G1 X32.949 Y154.636 E21.93525
G1 X30.241 Y155.139 E22.07266
G1 X27.577 Y155.712 E22.20861
G1 X26.766 Y155.912 E22.25028
G1 X25.708 Y156.155 E22.30444
G1 X25.012 Y156.244 E22.33945
G1 X12.666 Y156.245 E22.95539
G1 X11.968 Y156.236 E22.99022
G1 X11.464 Y156.189 E23.01547
G1 X10.974 Y156.064 E23.0407
G1 X10.51 Y155.863 E23.06593
G1 X10.084 Y155.592 E23.09112
G1 X9.705 Y155.257 E23.11636
G1 X9.384 Y154.866 E23.14159
G1 X9.129 Y154.43 E23.16679
G1 X8.945 Y153.959 E23.19202
G1 X8.838 Y153.465 E23.21724
G1 X8.801 Y153.012 E23.23991
G1 X8.8 Y140.702 E23.85406
G1 X8.811 Y139.993 E23.88944
G1 X8.894 Y139.319 E23.92332
G1 X9.629 Y136.158 E24.08523
G1 X10.166 Y133.48 E24.2215
G1 X10.628 Y130.786 E24.35786
G1 X11.016 Y128.065 E24.49499
G1 X11.323 Y125.363 E24.63066
G1 X11.556 Y122.646 E24.76671
G1 X11.711 Y119.905 E24.90367
G1 X11.79 Y117.138 E25.04178
G1 X11.811 Y113.915 E25.20258
G1 X12.017 Y111.413 E25.32782
G1 X12.172 Y108.673 E25.46474
G1 X12.25 Y105.92 E25.60214
G1 X12.25 Y103.202 E25.73774
G1 X12.172 Y100.45 E25.8751
G1 X12.015 Y97.677 E26.01366
G1 X11.801 Y95.008 E26.14725
G1 X11.8 Y50.697 E28.35793
G1 X11.81 Y50.008 E28.39231
G1 X11.858 Y49.504 E28.41757
G1 X11.984 Y49.015 E28.44276
G1 X12.185 Y48.551 E28.46799
G1 X12.457 Y48.125 E28.49321
G1 X12.793 Y47.747 E28.51844
G1 X13.184 Y47.426 E28.54368
G1 X13.62 Y47.171 E28.56888
G1 X14.092 Y46.989 E28.59412
G1 F1500 E22.09412
;MESH:nailplate_bottom.stl
G0 F3600 X15.414 Y49.38
G0 X15.414 Y50.459
G0 X20.973 Y94.617
G0 X24.102 Y149.751
G0 X24.478 Y149.751
;TYPE:WALL-INNER
G1 F1500 E28.59412
G1 F1800 X24.616 Y149.585 E28.60489
G1 X24.871 Y149.446 E28.61937
G1 X184.4 Y149.445 E36.57831
G1 X184.4 Y114.645 E38.31449
G1 X179.91 Y114.639 E38.53849
G1 X179.772 Y114.601 E38.54564
G1 X179.551 Y114.444 E38.55916
G1 X179.405 Y114.13 E38.57644
G1 X179.403 Y94.978 E39.53193
G1 X179.478 Y94.747 E39.54405
G1 X179.593 Y94.603 E39.55324
G1 X179.911 Y94.451 E39.57083
G1 X184.4 Y94.445 E39.79479
G1 X184.401 Y60.003 E41.5131
G1 X184.464 Y59.774 E41.52495
G1 X184.679 Y59.537 E41.54092
G1 X184.896 Y59.445 E41.55268
G1 X187.4 Y59.445 E41.6776
G1 X187.4 Y47.555 E42.2708
G1 X177.608 Y47.555 E42.75932
G1 X177.608 Y50.133 E42.88794
G1 X177.538 Y50.328 E42.89828
G1 X177.433 Y50.47 E42.90709
G1 X177.21 Y50.611 E42.92025
G1 X177.053 Y50.644 E42.92825
G1 X15.601 Y50.646 E50.98313
G1 X15.6 Y94.445 E53.16827
G1 X20.626 Y94.45 E53.41902
G1 X20.802 Y94.502 E53.42817
G1 X21.028 Y94.687 E53.44274
G1 X21.145 Y95.012 E53.45998
G1 X21.143 Y114.101 E54.41233
G1 X21.066 Y114.345 E54.42509
G1 X20.845 Y114.566 E54.44069
G1 X20.627 Y114.64 E54.45217
G1 X15.6 Y114.645 E54.70297
G1 X15.599 Y140.177 E55.97677
G1 X15.452 Y140.44 E55.9918
G1 X15.222 Y140.603 E56.00586
G1 X15 Y140.645 E56.01714
G1 X12.6 Y140.645 E56.13687
G1 X12.601 Y152.444 E56.72553
G1 X24.402 Y152.445 E57.31428
G1 X24.402 Y149.954 E57.43856
G1 X24.478 Y149.751 E57.44937
G0 F3600 X24.806 Y150.003
;TYPE:WALL-OUTER
G1 F1800 X24.853 Y149.91 E57.45457
G1 X24.975 Y149.846 E57.46144
G1 X184.8 Y149.845 E65.43514
G1 X184.8 Y114.245 E67.21124
G1 X179.97 Y114.243 E67.45221
G1 X179.863 Y114.192 E67.45812
G1 X179.801 Y114.074 E67.46477
G1 X179.8 Y95.026 E68.41508
G1 X179.872 Y94.89 E68.42276
G1 X179.97 Y94.847 E68.42809
G1 X184.8 Y94.845 E68.66906
G1 X184.804 Y60 E70.40749
G1 X184.843 Y59.92 E70.41193
G1 X184.952 Y59.85 E70.41839
G1 X187.8 Y59.845 E70.56048
G1 X187.8 Y47.155 E71.19359
G1 X177.208 Y47.155 E71.72202
G1 X177.205 Y50.085 E71.8682
G1 X177.169 Y50.165 E71.87258
G1 X177.057 Y50.24 E71.8793
G1 X15.201 Y50.246 E79.95433
G1 X15.2 Y94.845 E82.17938
G1 X20.572 Y94.846 E82.44739
G1 X20.694 Y94.91 E82.45427
G1 X20.743 Y95.01 E82.45982
G1 X20.741 Y114.089 E83.41168
G1 X20.667 Y114.205 E83.41854
G1 X20.573 Y114.244 E83.42362
G1 X15.2 Y114.245 E83.69168
G1 X15.199 Y140.072 E84.98019
G1 X15.129 Y140.199 E84.98743
G1 X15.042 Y140.241 E84.99225
G1 X12.2 Y140.245 E85.13404
G1 X12.201 Y152.844 E85.7626
G1 X24.802 Y152.845 E86.39127
G1 X24.806 Y150.003 E86.53306
G0 F3600 X24.853 Y149.91
G0 X24.938 Y149.866
G0 X24.145 Y149.566
;TYPE:SKIN
G1 F1800 X24.022 Y149.887 E86.55021
G1 X24.022 Y152.065 E86.65887
G1 X12.982 Y152.064 E87.20966
G1 X12.98 Y141.025 E87.7604
G1 X15.159 Y141.025 E87.86911
G1 X15.499 Y140.888 E87.88739
G1 X15.799 Y140.612 E87.90773
G1 X15.903 Y140.425 E87.91841
G1 X15.979 Y140.11 E87.93457
G1 X15.98 Y115.025 E89.18607
G1 X20.665 Y115.025 E89.4198
G1 X21.155 Y114.816 E89.44638
G1 X21.305 Y114.666 E89.45697
G1 X21.476 Y114.354 E89.47472
G1 X21.524 Y114.115 E89.48688
G1 X21.515 Y94.894 E90.44582
G1 X21.326 Y94.45 E90.46989
G1 X20.984 Y94.167 E90.49204
G1 X20.645 Y94.067 E90.50967
G1 X15.98 Y94.065 E90.74241
G1 X15.981 Y51.026 E92.88963
G1 X177.003 Y51.027 E100.92305
G1 X177.445 Y50.924 E100.9457
G1 X177.682 Y50.758 E100.96013
G1 X177.913 Y50.418 E100.98064
G1 X177.985 Y50.075 E100.99812
G1 X177.988 Y47.935 E101.10489
G1 X187.02 Y47.935 E101.5555
G1 X187.02 Y59.065 E102.11078
G1 X184.961 Y59.069 E102.2135
G1 X184.601 Y59.15 E102.23191
G1 X184.379 Y59.286 E102.2449
G1 X184.113 Y59.629 E102.26655
G1 X184.022 Y59.967 E102.28402
G1 X184.02 Y94.065 E103.98517
G1 X179.885 Y94.066 E104.19147
G1 X179.618 Y94.14 E104.20529
G1 X179.356 Y94.306 E104.22077
G1 X179.089 Y94.677 E104.24357
G1 X179.029 Y94.908 E104.25548
G1 X179.02 Y114.098 E105.21287
G1 X179.101 Y114.438 E105.23031
G1 X179.21 Y114.627 E105.24119
G1 X179.466 Y114.867 E105.2587
G1 X179.875 Y115.022 E105.28052
G1 X184.02 Y115.025 E105.48732
G1 X184.02 Y149.065 E107.18558
G1 X24.941 Y149.066 E115.12206
G1 X24.726 Y149.104 E115.13295
G1 X24.368 Y149.298 E115.15327
G1 X24.145 Y149.566 E115.17066
G0 F3600 X24.102 Y149.566
G0 X13.27 Y151.863
G1 F1800 X13.181 Y151.774 E115.17694
G0 F3600 X13.181 Y151.209
G1 F1800 X13.835 Y151.863 E115.22309
G0 F3600 X14.401 Y151.863
G1 F1800 X13.181 Y150.643 E115.30916
G0 F3600 X13.181 Y150.077
G1 F1800 X14.967 Y151.863 E115.43518
G0 F3600 X15.533 Y151.863
G1 F1800 X13.181 Y149.512 E115.60109
G0 F3600 X13.181 Y148.945
G1 F1800 X16.098 Y151.863 E115.80693
G0 F3600 X16.664 Y151.863
G1 F1800 X13.181 Y148.379 E116.05271
G0 F3600 X13.181 Y147.814
G1 F1800 X17.23 Y151.863 E116.33839
G0 F3600 X17.795 Y151.863
G1 F1800 X13.181 Y147.248 E116.66397
G0 F3600 X13.181 Y146.682
G1 F1800 X18.361 Y151.863 E117.02948
G0 F3600 X18.927 Y151.863
G1 F1800 X13.18 Y146.116 E117.43496
G0 F3600 X13.18 Y145.55
G1 F1800 X19.493 Y151.863 E117.88038
G0 F3600 X20.059 Y151.863
G1 F1800 X13.18 Y144.985 E118.36569
G0 F3600 X13.18 Y144.419
G1 F1800 X20.624 Y151.863 E118.89091
G0 F3600 X21.19 Y151.863
G1 F1800 X13.179 Y143.853 E119.45609
G0 F3600 X13.179 Y143.287
G1 F1800 X21.756 Y151.863 E120.06121
G0 F3600 X22.321 Y151.863
G1 F1800 X13.179 Y142.721 E120.70623
G0 F3600 X13.179 Y142.156
G1 F1800 X22.887 Y151.863 E121.39114
G0 F3600 X23.453 Y151.863
G1 F1800 X13.179 Y141.59 E122.116
G0 F3600 X13.379 Y141.224
G1 F1800 X23.822 Y151.667 E122.85281
G0 F3600 X23.822 Y151.101
G1 F1800 X13.945 Y141.224 E123.54968
G0 F3600 X14.511 Y141.224
G1 F1800 X23.822 Y150.535 E124.20662
G0 F3600 X23.822 Y149.97
G1 F1800 X15.076 Y141.224 E124.8237
G0 F3600 X15.506 Y141.088
G1 F1800 X23.95 Y149.532 E125.41947
G0 F3600 X24.189 Y149.205
G1 F1800 X15.827 Y140.844 E126.00942
G0 F3600 X16.073 Y140.524
G1 F1800 X24.527 Y148.978 E126.60589
G0 F3600 X24.979 Y148.865
G1 F1800 X16.177 Y140.063 E127.22692
G0 F3600 X16.177 Y139.497
G1 F1800 X25.545 Y148.865 E127.88789
G0 F3600 X26.111 Y148.865
G1 F1800 X16.177 Y138.931 E128.58878
G0 F3600 X16.177 Y138.365
G1 F1800 X26.677 Y148.865 E129.32961
G0 F3600 X27.242 Y148.865
G1 F1800 X16.177 Y137.8 E130.11031
G0 F3600 X16.177 Y137.234
G1 F1800 X27.808 Y148.865 E130.93094
G0 F3600 X28.374 Y148.865
G1 F1800 X16.177 Y136.668 E131.7915
G0 F3600 X16.177 Y136.103
G1 F1800 X28.939 Y148.865 E132.69193
G0 F3600 X29.505 Y148.865
G1 F1800 X16.177 Y135.537 E133.6323
G0 F3600 X16.177 Y134.971
G1 F1800 X30.071 Y148.865 E134.61259
G0 F3600 X30.636 Y148.865
G1 F1800 X16.177 Y134.406 E135.63275
G0 F3600 X16.177 Y133.84
G1 F1800 X31.202 Y148.865 E136.69285
G0 F3600 X31.768 Y148.865
G1 F1800 X16.177 Y133.274 E137.79288
G0 F3600 X16.177 Y132.709
G1 F1800 X32.333 Y148.865 E138.93277
G0 F3600 X32.899 Y148.865
G1 F1800 X16.177 Y132.143 E140.1126
G0 F3600 X16.178 Y131.578
G1 F1800 X33.465 Y148.865 E141.33229
G0 F3600 X34.03 Y148.865
G1 F1800 X16.178 Y131.012 E142.59188
G0 F3600 X16.178 Y130.447
G1 F1800 X34.596 Y148.865 E143.89137
G0 F3600 X35.162 Y148.865
G1 F1800 X16.178 Y129.881 E145.23079
G0 F3600 X16.178 Y129.315
G1 F1800 X35.727 Y148.865 E146.61011
G0 F3600 X36.293 Y148.865
G1 F1800 X16.178 Y128.75 E148.02934
G0 F3600 X16.178 Y128.184
G1 F1800 X36.859 Y148.865 E149.48849
G0 F3600 X37.425 Y148.865
G1 F1800 X16.178 Y127.618 E150.98758
G0 F3600 X16.178 Y127.052
G1 F1800 X37.99 Y148.865 E152.52657
G0 F3600 X38.556 Y148.865
G1 F1800 X16.178 Y126.487 E154.10546
G0 F3600 X16.178 Y125.921
G1 F1800 X39.122 Y148.865 E155.72428
G0 F3600 X39.687 Y148.865
G1 F1800 X16.178 Y125.355 E157.38301
G0 F3600 X16.178 Y124.79
G1 F1800 X40.253 Y148.865 E159.08163
G0 F3600 X40.819 Y148.865
G1 F1800 X16.178 Y124.224 E160.82018
G0 F3600 X16.178 Y123.658
G1 F1800 X41.384 Y148.865 E162.59864
G0 F3600 X41.95 Y148.865
G1 F1800 X16.179 Y123.093 E164.41696
G0 F3600 X16.179 Y122.528
G1 F1800 X42.516 Y148.865 E166.27517
G0 F3600 X43.081 Y148.865
G1 F1800 X16.179 Y121.962 E168.17329
G0 F3600 X16.179 Y121.396
G1 F1800 X43.647 Y148.865 E170.11134
G0 F3600 X44.213 Y148.865
G1 F1800 X16.179 Y120.831 E172.08929
G0 F3600 X16.179 Y120.265
G1 F1800 X44.778 Y148.865 E174.10714
G0 F3600 X45.344 Y148.865
G1 F1800 X16.179 Y119.699 E176.16493
G0 F3600 X16.179 Y119.134
G1 F1800 X45.91 Y148.865 E178.26261
G0 F3600 X46.476 Y148.865
G1 F1800 X16.179 Y118.568 E180.40022
G0 F3600 X16.179 Y118.002
G1 F1800 X47.041 Y148.865 E182.57774
G0 F3600 X47.607 Y148.865
G1 F1800 X16.179 Y117.437 E184.79516
G0 F3600 X16.179 Y116.871
G1 F1800 X48.173 Y148.865 E187.05251
G0 F3600 X48.738 Y148.865
G1 F1800 X16.179 Y116.305 E189.34975
G0 F3600 X16.179 Y115.739
G1 F1800 X49.304 Y148.865 E191.68694
G0 F3600 X49.87 Y148.865
G1 F1800 X16.229 Y115.224 E194.06049
G0 F3600 X16.795 Y115.224
G1 F1800 X50.435 Y148.865 E196.43401
G0 F3600 X51.001 Y148.865
G1 F1800 X17.36 Y115.223 E198.8076
G0 F3600 X17.925 Y115.223
G1 F1800 X51.567 Y148.865 E201.18122
G0 F3600 X52.132 Y148.865
G1 F1800 X18.49 Y115.223 E203.55485
G0 F3600 X19.055 Y115.222
G1 F1800 X52.698 Y148.865 E205.92854
G0 F3600 X53.264 Y148.865
G1 F1800 X19.621 Y115.222 E208.30224
G0 F3600 X20.186 Y115.221
G1 F1800 X53.829 Y148.865 E210.67597
G0 F3600 X54.395 Y148.865
G1 F1800 X20.739 Y115.208 E213.05062
G0 F3600 X21.14 Y115.044
G1 F1800 X54.961 Y148.865 E215.43687
G0 F3600 X55.526 Y148.865
G1 F1800 X21.452 Y114.791 E217.84098
G0 F3600 X21.653 Y114.426
G1 F1800 X56.092 Y148.865 E220.27084
G0 F3600 X56.658 Y148.865
G1 F1800 X21.723 Y113.929 E222.73572
G0 F3600 X21.723 Y113.364
G1 F1800 X57.224 Y148.865 E225.24051
G0 F3600 X57.789 Y148.865
G1 F1800 X21.723 Y112.798 E227.7852
G0 F3600 X21.723 Y112.232
G1 F1800 X58.355 Y148.865 E230.36982
G0 F3600 X58.921 Y148.865
G1 F1800 X21.722 Y111.666 E232.99441
G0 F3600 X21.722 Y111.1
G1 F1800 X59.486 Y148.865 E235.6589
G0 F3600 X60.052 Y148.865
G1 F1800 X21.722 Y110.534 E238.36332
G0 F3600 X21.722 Y109.969
G1 F1800 X60.618 Y148.865 E241.10764
G0 F3600 X61.183 Y148.865
G1 F1800 X21.722 Y109.403 E243.89187
G0 F3600 X21.721 Y108.837
G1 F1800 X61.749 Y148.865 E246.71606
G0 F3600 X62.315 Y148.865
G1 F1800 X21.721 Y108.271 E249.58018
G0 F3600 X21.721 Y107.705
G1 F1800 X62.88 Y148.865 E252.48421
G0 F3600 X63.446 Y148.865
G1 F1800 X21.721 Y107.14 E255.42813
G0 F3600 X21.72 Y106.573
G1 F1800 X64.012 Y148.865 E258.41206
G0 F3600 X64.577 Y148.865
G1 F1800 X21.72 Y106.008 E261.43585
G0 F3600 X21.72 Y105.442
G1 F1800 X65.143 Y148.865 E264.49958
G0 F3600 X65.709 Y148.865
G1 F1800 X21.72 Y104.876 E267.60324
G0 F3600 X21.72 Y104.31
G1 F1800 X66.274 Y148.865 E270.7468
G0 F3600 X66.84 Y148.865
G1 F1800 X21.72 Y103.744 E273.9303
G0 F3600 X21.72 Y103.178
G1 F1800 X67.406 Y148.865 E277.15373
G0 F3600 X67.972 Y148.865
G1 F1800 X21.72 Y102.613 E280.41706
G0 F3600 X21.719 Y102.046
G1 F1800 X68.537 Y148.865 E283.72035
G0 F3600 X69.103 Y148.865
G1 F1800 X21.719 Y101.481 E287.06355
G0 F3600 X21.719 Y100.915
G1 F1800 X69.669 Y148.865 E290.44668
G0 F3600 X70.234 Y148.865
G1 F1800 X21.719 Y100.349 E293.86971
G0 F3600 X21.719 Y99.784
G1 F1800 X70.8 Y148.865 E297.33264
G0 F3600 X71.366 Y148.865
G1 F1800 X21.718 Y99.217 E300.83558
G0 F3600 X21.718 Y98.652
G1 F1800 X71.931 Y148.865 E304.37838
G0 F3600 X72.497 Y148.865
G1 F1800 X21.718 Y98.086 E307.96111
G0 F3600 X21.718 Y97.52
G1 F1800 X73.063 Y148.865 E311.58378
G0 F3600 X73.628 Y148.865
G1 F1800 X21.718 Y96.954 E315.24634
G0 F3600 X21.718 Y96.388
G1 F1800 X74.194 Y148.865 E318.94884
G0 F3600 X74.76 Y148.865
G1 F1800 X21.718 Y95.822 E322.69128
G0 F3600 X21.718 Y95.257
G1 F1800 X75.325 Y148.865 E326.47358
G0 F3600 X75.891 Y148.865
G1 F1800 X21.591 Y94.564 E330.30477
G1 X21.521 Y94.494
G0 F3600 X21.001 Y93.974
G1 F1800 X16.18 Y89.153 E330.64492
G0 F3600 X16.18 Y89.719
G1 F1800 X20.328 Y93.867 E330.93758
G0 F3600 X19.762 Y93.867
G1 F1800 X16.18 Y90.284 E331.19035
G0 F3600 X16.18 Y90.85
G1 F1800 X19.196 Y93.867 E331.40318
G0 F3600 X18.63 Y93.866
G1 F1800 X16.18 Y91.416 E331.57604
G0 F3600 X16.18 Y91.981
